; generated by PrusaSlicer 2.9.4 on 2026-01-09 at 17:03:18 UTC


;
;
; 

; external perimeters extrusion width = 0.60mm
; perimeters extrusion width = 0.50mm
; infill extrusion width = 0.50mm
; solid infill extrusion width = 0.50mm
; top infill extrusion width = 0.45mm
; first layer extrusion width = 0.42mm

M73 P0 R105
M73 Q0 S105
M201 X1000 Y1000 Z200 E5000 ; sets maximum accelerations, mm/sec^2
M203 X200 Y200 Z12 E120 ; sets maximum feedrates, mm / sec
M204 S1250 T1250 ; sets acceleration (S) and retract acceleration (R), mm/sec^2
M205 X8.00 Y8.00 Z0.40 E4.50 ; sets the jerk limits, mm/sec
M205 S0 T0 ; sets the minimum extruding and travel feed rate, mm/sec

; printing object rh_keyplate.stl id:0 copy 0
; stop printing object rh_keyplate.stl id:0 copy 0

;TYPE:Custom
M862.3 P "MK3S" ; printer model check
M862.1 P0.4 ; nozzle diameter check
M115 U3.14.1 ; tell printer latest fw version
G90 ; use absolute coordinates
M83 ; extruder relative mode
M104 S215 ; set extruder temp
M140 S60 ; set bed temp
M190 S60 ; wait for bed temp
M109 S215 ; wait for extruder temp
G28 W ; home all without mesh bed level
G80 X44.5226 Y38.3743 W160.967 H133.347 ; mesh bed levelling

G1 Z0.2 F720
G1 Y-3 F1000 ; go outside print area
G92 E0
G1 X60 E9 F1000 ; intro line
G1 X100 E12.5 F1000 ; intro line

G92 E0
M221 S95

; Don't change E values below. Excessive value can damage the printer.

M907 E538 ; set extruder motor current
G21 ; set units to millimeters
G90 ; use absolute coordinates
M83 ; use relative distances for extrusion

M900 K0.05 ; Filament gcode LA 1.5
M900 K30 ; Filament gcode LA 1.0




M107
;LAYER_CHANGE
;Z:0.2
;HEIGHT:0.2
G1 E-.8 F2100
G1 Z.6 F720
G1 X60.779 Y39.639 F10800
G1 Z.2 F720
G1 E.8 F2100
M204 S800
;TYPE:Skirt/Brim
;WIDTH:0.42
G1 F1200
G1 X61.705 Y38.715 E.04102
G1 X63.332 Y38.555 E.05126
G1 X154.718 Y65.294 E2.98548
G1 X203.669 Y80.553 E1.60766
M73 P0 R104
G1 X204.744 Y81.298 E.04101
G1 X205.204 Y82.638 E.04442
G1 X205.301 Y161.603 E2.47589
G1 X204.912 Y162.851 E.04099
G1 X203.358 Y163.78 E.05677
G1 X134.454 Y171.533 E2.17407
G1 X116.266 Y171.532 E.57027
G1 X56.838 Y169.795 E1.86412
G1 X55.601 Y169.368 E.04103
G1 X54.725 Y167.832 E.05544
G1 X44.71 Y71.038 E3.05111
G1 X44.949 Y69.796 E.03966
G1 X60.751 Y39.692 E1.06602
M204 S1000
;WIPE_START
G1 F8640
G1 X60.779 Y39.639 E-.01384
G1 X61.705 Y38.715 E-.30206
G1 X63.332 Y38.555 E-.37749
G1 X63.775 Y38.685 E-.10661
;WIPE_END
G1 Z.6 F720
; printing object rh_keyplate.stl id:0 copy 0
G1 X132.287 Y92.83 F10800
G1 Z.2 F720
G1 E.8 F2100
M204 S800
;TYPE:Perimeter
;WIDTH:0.419999
G1 F1200
G1 X132.305 Y92.834 E.00058
G1 X132.716 Y93.122 E.01574
G1 X132.924 Y93.421 E.01142
G1 X133.073 Y93.927 E.01654
G1 X133.073 Y107.024 E.41065
G1 X132.986 Y107.48 E.01456
G1 X132.718 Y107.902 E.01567
G1 X132.298 Y108.195 E.01606
G1 X131.837 Y108.3 E.01482
G1 X118.775 Y108.3 E.40955
G1 X118.269 Y108.192 E.01622
G1 X117.852 Y107.898 E.016
G1 X117.586 Y107.479 E.01556
G1 X117.499 Y107.024 E.01452
G1 X117.499 Y94.001 E.40833
G1 X117.567 Y93.617 E.01223
G1 X117.807 Y93.186 E.01547
G1 X117.959 Y93.033 E.00676
G1 X118.274 Y92.83 E.01175
G1 X118.775 Y92.725 E.01605
G1 X131.794 Y92.725 E.4082
G1 X132.228 Y92.818 E.01392
M204 S1000
G1 X132.138 Y93.185 F10800
M204 S800
;TYPE:External perimeter
G1 F1200
G1 X132.183 Y93.196 E.00145
G1 X132.458 Y93.402 E.01077
G1 X132.638 Y93.697 E.01084
G1 X132.696 Y94.001 E.0097
G1 X132.696 Y107.024 E.40833
G1 X132.608 Y107.4 E.01211
G1 X132.403 Y107.68 E.01088
G1 X132.106 Y107.863 E.01094
G1 X131.811 Y107.923 E.00944
G1 X118.775 Y107.923 E.40873
G1 X118.392 Y107.831 E.01235
G1 X118.116 Y107.625 E.0108
G1 X117.935 Y107.329 E.01088
G1 X117.876 Y107.024 E.00974
G1 X117.876 Y94.001 E.40833
G1 X117.964 Y93.626 E.01208
G1 X118.17 Y93.346 E.0109
G1 X118.467 Y93.162 E.01095
G1 X118.775 Y93.102 E.00984
G1 X131.793 Y93.102 E.40817
G1 X132.08 Y93.171 E.00926
M73 Q0 S104
M204 S1000
;WIPE_START
G1 F8640
G1 X132.138 Y93.185 E-.01378
G1 X132.183 Y93.196 E-.0107
G1 X132.458 Y93.402 E-.07934
G1 X132.638 Y93.697 E-.0798
G1 X132.696 Y94.001 E-.07146
G1 X132.696 Y96.361 E-.54492
;WIPE_END
G1 Z.6 F720
G1 X151.337 Y109.499 F10800
G1 Z.2 F720
G1 E.8 F2100
M204 S800
;TYPE:Perimeter
G1 F1200
G1 X151.355 Y109.503 E.00058
G1 X151.674 Y109.711 E.01194
G1 X151.974 Y110.09 E.01516
G1 X152.123 Y110.595 E.01651
G1 X152.123 Y123.693 E.41068
G1 X152.018 Y124.194 E.01605
G1 X151.816 Y124.509 E.01173
G1 X151.434 Y124.816 E.01537
G1 X151.232 Y124.901 E.00687
G1 X150.842 Y124.969 E.01241
G1 X137.823 Y124.969 E.4082
G1 X137.319 Y124.861 E.01616
G1 X136.907 Y124.573 E.01576
G1 X136.699 Y124.274 E.01142
G1 X136.549 Y123.762 E.01673
G1 X136.549 Y110.67 E.41049
G1 X136.66 Y110.156 E.01649
G1 X136.958 Y109.741 E.01602
G1 X137.239 Y109.547 E.01071
G1 X137.44 Y109.462 E.00684
G1 X137.825 Y109.394 E.01226
G1 X150.844 Y109.394 E.4082
G1 X151.278 Y109.486 E.01391
M204 S1000
G1 X151.188 Y109.854 F10800
M204 S800
;TYPE:External perimeter
G1 F1200
G1 X151.233 Y109.865 E.00145
G1 X151.508 Y110.071 E.01077
G1 X151.688 Y110.366 E.01084
G1 X151.746 Y110.67 E.0097
G1 X151.746 Y123.693 E.40833
G1 X151.658 Y124.068 E.01208
G1 X151.453 Y124.349 E.01091
G1 X151.156 Y124.532 E.01094
G1 X150.842 Y124.592 E.01002
G1 X137.823 Y124.592 E.4082
G1 X137.442 Y124.499 E.0123
G1 X137.166 Y124.294 E.01078
G1 X136.985 Y123.998 E.01088
G1 X136.926 Y123.693 E.00974
G1 X136.926 Y110.67 E.40833
G1 X137.014 Y110.295 E.01208
G1 X137.22 Y110.014 E.01092
G1 X137.45 Y109.859 E.0087
G1 X137.825 Y109.771 E.01208
G1 X150.843 Y109.771 E.40817
G1 X151.13 Y109.84 E.00926
M204 S1000
;WIPE_START
G1 F8640
G1 X151.188 Y109.854 E-.01378
G1 X151.233 Y109.865 E-.0107
G1 X151.508 Y110.071 E-.07934
G1 X151.688 Y110.366 E-.0798
G1 X151.746 Y110.67 E-.07146
G1 X151.746 Y113.03 E-.54492
;WIPE_END
G1 Z.6 F720
G1 X151.337 Y90.449 F10800
G1 Z.2 F720
G1 E.8 F2100
M204 S800
;TYPE:Perimeter
G1 F1200
G1 X151.355 Y90.453 E.00058
G1 X151.674 Y90.661 E.01194
G1 X151.974 Y91.04 E.01516
G1 X152.123 Y91.545 E.01651
G1 X152.123 Y104.643 E.41068
G1 X152.018 Y105.144 E.01605
G1 X151.816 Y105.459 E.01173
G1 X151.434 Y105.766 E.01537
G1 X151.233 Y105.851 E.00684
G1 X150.842 Y105.919 E.01244
G1 X137.823 Y105.919 E.4082
G1 X137.319 Y105.811 E.01616
G1 X136.907 Y105.523 E.01576
G1 X136.699 Y105.224 E.01142
G1 X136.549 Y104.712 E.01673
G1 X136.549 Y91.62 E.41049
G1 X136.617 Y91.236 E.01223
G1 X136.702 Y91.034 E.00687
G1 X136.958 Y90.691 E.01342
G1 X137.324 Y90.449 E.01376
G1 X137.825 Y90.344 E.01605
G1 X150.844 Y90.344 E.4082
G1 X151.278 Y90.436 E.01391
M204 S1000
G1 X151.188 Y90.804 F10800
M204 S800
;TYPE:External perimeter
G1 F1200
G1 X151.233 Y90.815 E.00145
G1 X151.508 Y91.021 E.01077
G1 X151.688 Y91.316 E.01084
G1 X151.746 Y91.62 E.0097
G1 X151.746 Y104.643 E.40833
G1 X151.658 Y105.018 E.01208
G1 X151.453 Y105.299 E.01091
G1 X151.156 Y105.482 E.01094
G1 X150.842 Y105.542 E.01002
G1 X137.823 Y105.542 E.4082
G1 X137.442 Y105.45 E.01229
G1 X137.166 Y105.244 E.0108
G1 X136.985 Y104.948 E.01088
G1 X136.926 Y104.643 E.00974
G1 X136.926 Y91.62 E.40833
G1 X136.986 Y91.312 E.00984
G1 X137.22 Y90.964 E.01315
G1 X137.517 Y90.781 E.01094
G1 X137.825 Y90.721 E.00984
G1 X150.843 Y90.721 E.40817
G1 X151.13 Y90.79 E.00926
M204 S1000
;WIPE_START
G1 F8640
G1 X151.188 Y90.804 E-.01378
G1 X151.233 Y90.815 E-.0107
G1 X151.508 Y91.021 E-.07934
G1 X151.688 Y91.316 E-.0798
G1 X151.746 Y91.62 E-.07146
G1 X151.746 Y93.98 E-.54492
;WIPE_END
G1 Z.6 F720
G1 X132.284 Y73.787 F10800
G1 Z.2 F720
G1 E.8 F2100
M204 S800
;TYPE:Perimeter
G1 F1200
G1 X132.337 Y73.8 E.00171
G1 X132.716 Y74.072 E.01463
G1 X132.924 Y74.372 E.01145
G1 X133.073 Y74.877 E.01651
G1 X133.073 Y87.974 E.41065
G1 X132.986 Y88.43 E.01456
G1 X132.718 Y88.852 E.01567
G1 X132.298 Y89.145 E.01606
G1 X131.798 Y89.25 E.01602
G1 X118.773 Y89.25 E.40839
G1 X118.269 Y89.142 E.01616
G1 X117.813 Y88.8 E.01787
G1 X117.586 Y88.429 E.01364
G1 X117.499 Y87.974 E.01452
G1 X117.499 Y74.951 E.40833
G1 X117.567 Y74.567 E.01223
G1 X117.807 Y74.136 E.01547
G1 X117.959 Y73.983 E.00676
G1 X118.297 Y73.771 E.01251
G1 X118.775 Y73.675 E.01529
G1 X131.797 Y73.675 E.40829
G1 X132.226 Y73.774 E.0138
M204 S1000
G1 X132.138 Y74.135 F10800
M204 S800
;TYPE:External perimeter
G1 F1200
G1 X132.183 Y74.146 E.00145
G1 X132.458 Y74.352 E.01077
G1 X132.638 Y74.647 E.01084
G1 X132.696 Y74.951 E.0097
G1 X132.696 Y87.974 E.40833
G1 X132.608 Y88.35 E.01211
G1 X132.403 Y88.63 E.01088
G1 X132.106 Y88.813 E.01094
G1 X131.792 Y88.873 E.01002
G1 X118.773 Y88.873 E.4082
G1 X118.392 Y88.781 E.01229
G1 X118.115 Y88.575 E.01082
G1 X117.935 Y88.279 E.01086
G1 X117.876 Y87.974 E.00974
G1 X117.876 Y74.951 E.40833
G1 X117.964 Y74.576 E.01208
G1 X118.17 Y74.296 E.0109
G1 X118.467 Y74.112 E.01095
G1 X118.775 Y74.052 E.00984
G1 X131.794 Y74.052 E.4082
G1 X132.08 Y74.121 E.00922
M204 S1000
;WIPE_START
G1 F8640
G1 X132.138 Y74.135 E-.01378
G1 X132.183 Y74.146 E-.0107
G1 X132.458 Y74.352 E-.07934
G1 X132.638 Y74.647 E-.0798
G1 X132.696 Y74.951 E-.07146
G1 X132.696 Y77.311 E-.54492
;WIPE_END
G1 Z.6 F720
G1 X113.237 Y90.449 F10800
G1 Z.2 F720
G1 E.8 F2100
M204 S800
;TYPE:Perimeter
G1 F1200
G1 X113.255 Y90.453 E.00058
G1 X113.673 Y90.748 E.01604
G1 X113.937 Y91.166 E.0155
G1 X114.023 Y91.62 E.01449
G1 X114.023 Y104.643 E.40833
G1 X113.956 Y105.027 E.01222
G1 X113.716 Y105.459 E.01549
G1 X113.248 Y105.814 E.01842
G1 X112.748 Y105.919 E.01602
G1 X99.723 Y105.919 E.40839
G1 X99.268 Y105.83 E.01454
G1 X98.878 Y105.588 E.01439
G1 X98.598 Y105.222 E.01445
G1 X98.467 Y104.785 E.0143
G1 X98.449 Y104.137 E.02033
G1 X98.449 Y91.62 E.39246
G1 X98.517 Y91.236 E.01223
G1 X98.757 Y90.804 E.01549
G1 X98.909 Y90.652 E.00674
G1 X99.224 Y90.449 E.01175
G1 X99.725 Y90.344 E.01605
G1 X112.744 Y90.344 E.4082
G1 X113.178 Y90.436 E.01391
M204 S1000
G1 X113.088 Y90.804 F10800
M204 S800
;TYPE:External perimeter
G1 F1200
G1 X113.133 Y90.815 E.00145
G1 X113.408 Y91.021 E.01077
G1 X113.588 Y91.316 E.01084
G1 X113.646 Y91.62 E.0097
G1 X113.646 Y104.643 E.40833
G1 X113.558 Y105.018 E.01208
M73 P1 R104
M73 Q1 S104
G1 X113.386 Y105.27 E.00957
G1 X113.056 Y105.482 E.0123
G1 X112.742 Y105.542 E.01002
G1 X99.723 Y105.542 E.4082
G1 X99.342 Y105.449 E.0123
G1 X99.064 Y105.241 E.01089
G1 X98.885 Y104.948 E.01077
G1 X98.826 Y104.643 E.00974
G1 X98.826 Y91.62 E.40833
G1 X98.914 Y91.245 E.01208
G1 X99.12 Y90.964 E.01092
G1 X99.417 Y90.781 E.01094
G1 X99.725 Y90.721 E.00984
G1 X112.743 Y90.721 E.40817
G1 X113.03 Y90.79 E.00926
M204 S1000
;WIPE_START
G1 F8640
G1 X113.088 Y90.804 E-.01378
G1 X113.133 Y90.815 E-.0107
G1 X113.408 Y91.021 E-.07934
G1 X113.588 Y91.316 E-.0798
G1 X113.646 Y91.62 E-.07146
G1 X113.646 Y93.98 E-.54492
;WIPE_END
G1 Z.6 F720
G1 X113.237 Y109.499 F10800
G1 Z.2 F720
G1 E.8 F2100
M204 S800
;TYPE:Perimeter
G1 F1200
G1 X113.255 Y109.503 E.00058
G1 X113.673 Y109.798 E.01604
G1 X113.937 Y110.216 E.0155
G1 X114.023 Y110.67 E.01449
G1 X114.023 Y123.693 E.40833
G1 X113.956 Y124.077 E.01222
G1 X113.716 Y124.509 E.01549
G1 X113.564 Y124.661 E.00674
G1 X113.248 Y124.864 E.01178
G1 X112.748 Y124.969 E.01602
G1 X99.723 Y124.969 E.40839
G1 X99.219 Y124.861 E.01616
G1 X98.801 Y124.567 E.01602
G1 X98.536 Y124.148 E.01554
G1 X98.449 Y123.693 E.01452
G1 X98.449 Y110.67 E.40833
G1 X98.524 Y110.254 E.01325
G1 X98.757 Y109.854 E.01451
G1 X98.909 Y109.702 E.00674
G1 X99.261 Y109.484 E.01298
G1 X99.725 Y109.394 E.01482
G1 X112.742 Y109.394 E.40814
G1 X113.178 Y109.486 E.01397
M204 S1000
G1 X113.088 Y109.854 F10800
M204 S800
;TYPE:External perimeter
G1 F1200
G1 X113.133 Y109.865 E.00145
G1 X113.408 Y110.071 E.01077
G1 X113.588 Y110.366 E.01084
G1 X113.646 Y110.67 E.0097
G1 X113.646 Y123.693 E.40833
M73 P1 R103
G1 X113.558 Y124.068 E.01208
G1 X113.353 Y124.349 E.01091
G1 X113.056 Y124.532 E.01094
G1 X112.742 Y124.592 E.01002
G1 X99.723 Y124.592 E.4082
G1 X99.342 Y124.5 E.01229
G1 X99.066 Y124.294 E.0108
G1 X98.885 Y123.998 E.01088
G1 X98.826 Y123.693 E.00974
G1 X98.826 Y110.67 E.40833
G1 X98.914 Y110.295 E.01208
G1 X99.12 Y110.014 E.01092
G1 X99.417 Y109.831 E.01094
G1 X99.725 Y109.771 E.00984
G1 X112.742 Y109.771 E.40814
G1 X113.03 Y109.84 E.00929
M204 S1000
;WIPE_START
G1 F8640
G1 X113.088 Y109.854 E-.01378
G1 X113.133 Y109.865 E-.0107
G1 X113.408 Y110.071 E-.07934
G1 X113.588 Y110.366 E-.0798
G1 X113.646 Y110.67 E-.07146
G1 X113.646 Y113.03 E-.54492
;WIPE_END
G1 Z.6 F720
G1 X95.28 Y108.153 F10800
G1 Z.2 F720
G1 E.8 F2100
M204 S800
;TYPE:Perimeter
G1 F1200
G1 X95.258 Y108.086 E.00221
;WIDTH:0.405737
G1 X95.198 Y107.6 E.01477
;WIDTH:0.419999
G1 X95.277 Y107.106 E.01569
G1 X95.48 Y106.666 E.01519
G1 X95.795 Y106.288 E.01543
G1 X96.21 Y105.998 E.01587
G1 X96.688 Y105.829 E.0159
G1 X97.149 Y105.788 E.01451
G1 X97.634 Y105.872 E.01543
G1 X98.083 Y106.079 E.0155
G1 X98.491 Y106.433 E.01694
G1 X98.743 Y106.794 E.0138
G1 X98.914 Y107.256 E.01545
G1 X98.959 Y107.746 E.01543
G1 X98.876 Y108.231 E.01543
G1 X98.67 Y108.678 E.01543
G1 X98.355 Y109.057 E.01545
G1 X97.953 Y109.341 E.01543
G1 X97.491 Y109.512 E.01545
G1 X96.938 Y109.548 E.01738
G1 X96.516 Y109.473 E.01344
G1 X96.069 Y109.267 E.01543
G1 X95.69 Y108.952 E.01545
G1 X95.406 Y108.551 E.01541
G1 X95.298 Y108.211 E.01119
M204 S1000
G1 X95.619 Y108.063 F10800
M204 S800
;TYPE:External perimeter
G1 F1200
G1 X95.61 Y108.04 E.00077
G1 X95.564 Y107.648 E.01238
G1 X95.626 Y107.25 E.01263
G1 X95.779 Y106.896 E.01209
G1 X96.024 Y106.587 E.01236
G1 X96.345 Y106.35 E.01251
G1 X96.794 Y106.196 E.01488
G1 X97.099 Y106.162 E.00962
G1 X97.489 Y106.22 E.01236
G1 X97.853 Y106.378 E.01244
G1 X98.192 Y106.663 E.01389
G1 X98.435 Y107.034 E.01391
G1 X98.54 Y107.305 E.00911
G1 X98.585 Y107.697 E.01237
G1 X98.527 Y108.087 E.01236
G1 X98.37 Y108.449 E.01237
G1 X98.125 Y108.758 E.01236
G1 X97.809 Y108.993 E.01235
G1 X97.441 Y109.138 E.0124
G1 X96.987 Y109.174 E.01428
G1 X96.66 Y109.125 E.01037
G1 X96.298 Y108.968 E.01237
G1 X95.989 Y108.723 E.01236
G1 X95.755 Y108.406 E.01235
G1 X95.641 Y108.119 E.00968
M204 S1000
;WIPE_START
G1 F8640
G1 X95.619 Y108.063 E-.01389
G1 X95.61 Y108.04 E-.0057
G1 X95.564 Y107.648 E-.09113
G1 X95.626 Y107.25 E-.09301
G1 X95.779 Y106.896 E-.08905
G1 X96.024 Y106.587 E-.09105
G1 X96.345 Y106.35 E-.09213
G1 X96.794 Y106.196 E-.1096
G1 X97.099 Y106.162 E-.07086
G1 X97.489 Y106.22 E-.09104
G1 X97.698 Y106.311 E-.05254
;WIPE_END
G1 Z.6 F720
G1 X94.187 Y107.117 F10800
G1 Z.2 F720
G1 E.8 F2100
M204 S800
;TYPE:Perimeter
G1 F1200
G1 X94.199 Y107.119 E.00038
G1 X94.635 Y107.431 E.01681
G1 X94.869 Y107.828 E.01445
;WIDTH:0.391224
G1 X94.956 Y108.291 E.01364
;WIDTH:0.419999
G1 X94.973 Y108.85 E.01754
G1 X94.973 Y121.312 E.39074
G1 X94.906 Y121.696 E.01222
G1 X94.666 Y122.127 E.01547
G1 X94.514 Y122.28 E.00676
G1 X94.198 Y122.483 E.01178
G1 X93.698 Y122.588 E.01602
G1 X80.673 Y122.588 E.40839
G1 X80.169 Y122.48 E.01616
G1 X79.757 Y122.191 E.01578
G1 X79.487 Y121.769 E.01571
G1 X79.399 Y121.312 E.01459
G1 X79.399 Y108.289 E.40833
G1 X79.467 Y107.904 E.01226
G1 X79.707 Y107.473 E.01547
G1 X80.089 Y107.166 E.01537
G1 X80.29 Y107.081 E.00684
G1 X80.675 Y107.013 E.01226
G1 X93.694 Y107.013 E.4082
G1 X94.128 Y107.104 E.0139
M204 S1000
G1 X94.038 Y107.473 F10800
M204 S800
;TYPE:External perimeter
G1 F1200
G1 X94.083 Y107.484 E.00145
G1 X94.358 Y107.69 E.01077
G1 X94.538 Y107.984 E.01081
G1 X94.596 Y108.291 E.0098
G1 X94.596 Y121.312 E.40826
G1 X94.508 Y121.687 E.01208
G1 X94.354 Y121.917 E.00868
G1 X94.006 Y122.151 E.01315
G1 X93.692 Y122.211 E.01002
G1 X80.673 Y122.211 E.4082
G1 X80.292 Y122.118 E.0123
G1 X80.015 Y121.912 E.01082
G1 X79.835 Y121.617 E.01084
G1 X79.776 Y121.312 E.00974
G1 X79.776 Y108.289 E.40833
G1 X79.864 Y107.913 E.01211
G1 X80.07 Y107.633 E.0109
G1 X80.367 Y107.45 E.01094
G1 X80.675 Y107.39 E.00984
G1 X93.693 Y107.39 E.40817
G1 X93.98 Y107.459 E.00926
M204 S1000
;WIPE_START
G1 F8640
G1 X94.038 Y107.473 E-.01378
G1 X94.083 Y107.484 E-.0107
G1 X94.358 Y107.69 E-.07934
G1 X94.538 Y107.984 E-.0796
G1 X94.596 Y108.291 E-.07214
G1 X94.596 Y110.649 E-.54444
;WIPE_END
G1 Z.6 F720
G1 X75.137 Y97.59 F10800
G1 Z.2 F720
G1 E.8 F2100
M204 S800
;TYPE:Perimeter
G1 F1200
G1 X75.143 Y97.592 E.0002
