; generated by PrusaSlicer 2.9.4 on 2026-01-06 at 17:37:22 UTC


;
;
; 

; external perimeters extrusion width = 0.60mm
; perimeters extrusion width = 0.50mm
; infill extrusion width = 0.50mm
; solid infill extrusion width = 0.50mm
; top infill extrusion width = 0.45mm
; support material extrusion width = 0.38mm
; first layer extrusion width = 0.42mm

M73 P0 R113
M73 Q0 S113
M201 X1000 Y1000 Z200 E5000 ; sets maximum accelerations, mm/sec^2
M203 X200 Y200 Z12 E120 ; sets maximum feedrates, mm / sec
M204 S1250 T1250 ; sets acceleration (S) and retract acceleration (R), mm/sec^2
M205 X8.00 Y8.00 Z0.40 E4.50 ; sets the jerk limits, mm/sec
M205 S0 T0 ; sets the minimum extruding and travel feed rate, mm/sec

; printing object lh_keyplate.stl id:0 copy 0
; stop printing object lh_keyplate.stl id:0 copy 0

;TYPE:Custom
M862.3 P "MK3S" ; printer model check
M862.1 P0.4 ; nozzle diameter check
M115 U3.14.1 ; tell printer latest fw version
G90 ; use absolute coordinates
M83 ; extruder relative mode
M104 S215 ; set extruder temp
M140 S60 ; set bed temp
M190 S60 ; wait for bed temp
M109 S215 ; wait for extruder temp
G28 W ; home all without mesh bed level
G80 X39.64 Y33.1834 W170.716 H143.406 ; mesh bed levelling

G1 Z0.2 F720
G1 Y-3 F1000 ; go outside print area
G92 E0
G1 X60 E9 F1000 ; intro line
G1 X100 E12.5 F1000 ; intro line

G92 E0
M221 S95

; Don't change E values below. Excessive value can damage the printer.

M907 E538 ; set extruder motor current
G21 ; set units to millimeters
G90 ; use absolute coordinates
M83 ; use relative distances for extrusion

M900 K0.05 ; Filament gcode LA 1.5
M900 K30 ; Filament gcode LA 1.0




M107
;LAYER_CHANGE
;Z:0.35
;HEIGHT:0.35
G1 E-.8 F2100
G1 Z.75 F720
G1 X43.425 Y76.341 F10800
G1 Z.35 F720
G1 E.8 F2100
M204 S800
;TYPE:Skirt/Brim
;WIDTH:0.42
G1 F1200
G1 X94.166 Y60.527 E2.66729
G1 X186.282 Y33.349 E4.81994
G1 X187.593 Y33.375 E.06581
G1 X191.458 Y34.683 E.20478
G1 X192.685 Y35.731 E.08098
G1 X209.889 Y68.504 E1.85759
G1 X210.137 Y69.472 E.05015
G1 X210.173 Y72.145 E.13416
G1 X200.159 Y169.705 E4.92186
G1 X199.556 Y170.998 E.0716
G1 X196.673 Y173.964 E.20758
G1 X195.178 Y174.622 E.08197
G1 X133.843 Y176.415 E3.07947
G1 X115.293 Y176.413 E.93095
M73 P0 R112
G1 X44.336 Y168.435 E3.58348
G1 X42.959 Y167.723 E.0778
G1 X40.364 Y164.815 E.1956
G1 X39.812 Y163.366 E.07782
G1 X39.914 Y81.106 E4.1283
G1 X40.338 Y79.819 E.068
G1 X42.326 Y77.124 E.16807
G1 X43.377 Y76.375 E.06477
M204 S1000
;WIPE_START
G1 F8640
G1 X43.425 Y76.341 E-.01358
G1 X46.677 Y75.328 E-.78642
;WIPE_END
G1 Z.75 F720
G1 X44.81 Y78.732 F10800
G1 Z.35 F720
G1 E.8 F2100
M204 S800
G1 F1200
G1 X45.437 Y78.351 E.03682
G1 X94.845 Y62.951 E2.59724
G1 X129.286 Y62.567 E1.72856
G1 X185.612 Y36.408 E3.11675
G1 X187.842 Y36.184 E.11248
G1 X188.64 Y36.382 E.04126
G1 X189.522 Y36.744 E.04785
G1 X191.196 Y38.309 E.11501
G1 X207.248 Y68.888 E1.73323
G1 X207.63 Y70.397 E.07812
G1 X207.353 Y72.505 E.1067
G1 X197.691 Y92.786 E1.12742
G1 X197.654 Y167.845 E3.7669
G1 X197.063 Y169.756 E.10039
G1 X196.634 Y170.366 E.03743
G1 X196.095 Y170.951 E.03992
G1 X194.877 Y171.748 E.07305
G1 X193.438 Y172.155 E.07505
G1 X133.773 Y173.899 E2.99562
G1 X115.429 Y173.9 E.92061
G1 X46.164 Y166.109 E3.49805
M73 Q0 S112
G1 X44.736 Y165.576 E.07649
G1 X43.547 Y164.607 E.07698
G1 X42.715 Y163.309 E.07737
G1 X42.331 Y161.836 E.07639
G1 X42.429 Y82.385 E3.98732
G1 X42.941 Y80.626 E.09194
G1 X44.071 Y79.182 E.09202
G1 X44.759 Y78.764 E.0404
M204 S1000
G1 X44.938 Y79.055 F10800
M204 S800
G1 F1200
G1 X45.56 Y78.674 E.03661
G1 X94.923 Y63.288 E2.59488
G1 X129.364 Y62.911 E1.72856
G1 X185.731 Y36.733 E3.11902
G1 X187.788 Y36.526 E.10375
M73 P1 R112
M73 Q1 S112
G1 X188.521 Y36.706 E.03788
G1 X189.362 Y37.051 E.04562
G1 X190.905 Y38.494 E.10602
G1 X206.934 Y69.031 E1.73082
G1 X207.284 Y70.387 E.07028
G1 X207.03 Y72.382 E.10093
G1 X197.346 Y92.708 E1.12994
G1 X197.309 Y167.819 E3.76951
G1 X196.765 Y169.58 E.0925
G1 X195.856 Y170.701 E.07243
G1 X194.712 Y171.444 E.06846
G1 X193.407 Y171.811 E.06803
G1 X133.765 Y173.554 E2.99447
G1 X115.439 Y173.555 E.91971
G1 X46.224 Y165.768 E3.49553
G1 X44.885 Y165.264 E.0718
G1 X43.787 Y164.359 E.07141
G1 X43.042 Y163.195 E.06936
G1 X42.676 Y161.814 E.0717
G1 X42.774 Y82.409 E3.98502
G1 X43.234 Y80.81 E.0835
M73 P1 R111
G1 X44.278 Y79.459 E.08569
G1 X44.886 Y79.087 E.03577
M204 S1000
G1 X45.061 Y79.374 F10800
M204 S800
G1 F1200
G1 X45.682 Y78.997 E.03646
G1 X95 Y63.625 E2.59251
G1 X129.442 Y63.255 E1.7286
G1 X185.85 Y37.058 E3.12128
G1 X187.735 Y36.868 E.09508
G1 X188.402 Y37.03 E.03445
G1 X189.201 Y37.358 E.04335
G1 X190.613 Y38.68 E.09707
G1 X206.619 Y69.174 E1.72838
G1 X206.942 Y70.44 E.06557
G1 X206.707 Y72.258 E.092
G1 X197.001 Y92.63 E1.1325
G1 X196.965 Y167.793 E3.77212
G1 X196.467 Y169.405 E.08467
G1 X195.617 Y170.451 E.06764
G1 X194.592 Y171.12 E.06143
G1 X193.375 Y171.467 E.06351
G1 X133.758 Y173.21 E2.99321
G1 X115.449 Y173.211 E.91885
G1 X46.285 Y165.428 E3.49297
G1 X45.035 Y164.952 E.06713
G1 X44.03 Y164.112 E.06573
G1 X43.348 Y163.033 E.06406
G1 X43.021 Y161.792 E.06441
G1 X43.119 Y82.435 E3.98261
G1 X43.556 Y80.939 E.07822
M73 Q1 S111
G1 X44.53 Y79.697 E.07921
G1 X45.01 Y79.406 E.02817
M204 S1000
G1 X45.189 Y79.698 F10800
M204 S800
G1 F1200
G1 X45.805 Y79.32 E.03627
G1 X95.078 Y63.962 E2.59015
G1 X129.52 Y63.599 E1.7286
G1 X185.969 Y37.383 E3.12355
G1 X187.683 Y37.21 E.08646
G1 X188.283 Y37.354 E.03097
G1 X189.041 Y37.665 E.04112
G1 X190.321 Y38.866 E.08809
G1 X206.304 Y69.316 E1.72588
G1 X206.599 Y70.492 E.06085
G1 X206.384 Y72.134 E.08311
G1 X196.656 Y92.552 E1.13505
G1 X196.62 Y167.767 E3.77473
G1 X196.168 Y169.23 E.07685
G1 X195.378 Y170.201 E.06282
G1 X194.427 Y170.816 E.05684
G1 X193.344 Y171.123 E.05649
G1 X133.75 Y172.865 E2.99206
G1 X115.458 Y172.866 E.918
G1 X46.345 Y165.088 E3.49039
G1 X45.234 Y164.669 E.05959
M73 P2 R111
M73 Q2 S111
G1 X44.272 Y163.865 E.06292
G1 X43.674 Y162.918 E.05621
G1 X43.366 Y161.769 E.0597
G1 X43.464 Y82.46 E3.9802
G1 X43.877 Y81.069 E.07282
G1 X44.736 Y79.975 E.06981
G1 X45.138 Y79.729 E.02365
M204 S1000
G1 X45.312 Y80.017 F10800
M204 S800
G1 F1200
G1 X45.927 Y79.643 E.03612
G1 X95.156 Y64.299 E2.58783
G1 X129.598 Y63.943 E1.7286
G1 X186.088 Y37.708 E3.12582
M73 P2 R110
G1 X187.632 Y37.552 E.07788
G1 X188.165 Y37.678 E.02749
G1 X188.881 Y37.972 E.03884
G1 X190.028 Y39.052 E.07906
G1 X205.989 Y69.457 E1.72337
G1 X206.257 Y70.542 E.05609
G1 X206.061 Y72.01 E.07433
G1 X196.312 Y92.474 E1.13759
G1 X196.275 Y167.741 E3.77734
G1 X195.87 Y169.057 E.0691
G1 X195.139 Y169.952 E.05799
G1 X194.307 Y170.492 E.04978
G1 X193.312 Y170.779 E.05197
G1 X133.743 Y172.52 E2.9908
G1 X115.468 Y172.521 E.91715
G1 X46.405 Y164.747 E3.48788
G1 X45.385 Y164.358 E.05479
G1 X44.515 Y163.619 E.05729
G1 X43.999 Y162.802 E.04849
G1 X43.71 Y161.746 E.05495
G1 X43.808 Y82.486 E3.97774
G1 X44.197 Y81.201 E.06738
G1 X44.986 Y80.215 E.06338
G1 X45.261 Y80.048 E.01615
M204 S1000
G1 X45.44 Y80.34 F10800
M204 S800
G1 F1200
G1 X46.051 Y79.966 E.03595
G1 X95.233 Y64.636 E2.58537
G1 X129.676 Y64.288 E1.72864
G1 X186.208 Y38.033 E3.12815
G1 X187.582 Y37.894 E.06931
M73 Q2 S110
G1 X188.72 Y38.279 E.06029
G1 X189.736 Y39.237 E.07008
G1 X205.673 Y69.598 E1.72086
G1 X205.914 Y70.592 E.05133
G1 X205.738 Y71.886 E.06554
G1 X195.967 Y92.396 E1.14015
G1 X195.93 Y167.715 E3.77995
G1 X195.57 Y168.883 E.06134
G1 X194.901 Y169.702 E.05307
G1 X194.142 Y170.188 E.04523
G1 X193.28 Y170.435 E.045
G1 X133.735 Y172.175 E2.9896
G1 X115.478 Y172.176 E.91624
G1 X46.466 Y164.407 E3.48531
G1 X45.538 Y164.047 E.04995
G1 X44.76 Y163.376 E.05156
G1 X44.325 Y162.685 E.04098
G1 X44.055 Y161.722 E.05019
G1 X44.153 Y82.511 E3.97528
G1 X44.488 Y81.388 E.05881
G1 X45.193 Y80.492 E.05722
G1 X45.389 Y80.372 E.01153
M204 S1000
G1 X45.563 Y80.659 F10800
M204 S800
G1 F1200
G1 X46.173 Y80.29 E.03578
G1 X95.311 Y64.973 E2.58307
G1 X129.754 Y64.632 E1.72864
G1 X186.327 Y38.358 E3.13042
G1 X187.533 Y38.237 E.06083
G1 X187.929 Y38.327 E.02038
G1 X188.56 Y38.586 E.03423
G1 X189.444 Y39.423 E.0611
G1 X205.358 Y69.741 E1.71841
G1 X205.568 Y70.581 E.04345
G1 X205.415 Y71.762 E.05976
G1 X195.622 Y92.318 E1.14271
G1 X195.585 Y167.69 E3.78261
M73 P3 R110
G1 X195.27 Y168.711 E.05362
M73 P3 R109
M73 Q3 S110
G1 X194.662 Y169.452 E.0481
G1 X194.021 Y169.864 E.03824
G1 X193.248 Y170.09 E.04042
G1 X133.728 Y171.83 E2.98834
G1 X115.487 Y171.831 E.91544
G1 X46.528 Y164.067 E3.48264
G1 X45.694 Y163.738 E.04499
G1 X45.007 Y163.134 E.04591
G1 X44.649 Y162.566 E.0337
G1 X44.4 Y161.698 E.04532
G1 X44.498 Y82.538 E3.97272
G1 X44.808 Y81.522 E.05331
G1 X45.442 Y80.733 E.0508
G1 X45.512 Y80.69 E.00412
M204 S1000
G1 X45.692 Y80.983 F10800
M204 S800
G1 F1200
G1 X46.296 Y80.612 E.03557
G1 X95.389 Y65.31 E2.58069
G1 X129.831 Y64.976 E1.72858
G1 X186.445 Y38.683 E3.13269
G1 X187.486 Y38.579 E.0525
G1 X188.399 Y38.893 E.04845
G1 X189.152 Y39.608 E.05211
G1 X205.043 Y69.882 E1.71592
G1 X205.225 Y70.63 E.03863
G1 X205.092 Y71.638 E.05103
G1 X195.277 Y92.24 E1.14527
G1 X195.24 Y167.664 E3.78522
G1 X194.97 Y168.54 E.046
M73 Q3 S109
G1 X194.423 Y169.202 E.0431
G1 X193.898 Y169.541 E.03136
G1 X193.214 Y169.746 E.03584
G1 X133.72 Y171.486 E2.98704
G1 X115.497 Y171.486 E.91454
G1 X46.59 Y163.727 E3.48001
G1 X45.852 Y163.43 E.03992
G1 X45.256 Y162.894 E.04023
G1 X44.973 Y162.445 E.02664
G1 X44.745 Y161.673 E.0404
G1 X44.843 Y82.563 E3.97021
G1 X45.1 Y81.708 E.04481
G1 X45.643 Y81.017 E.0441
M204 S1000
G1 X45.898 Y81.251 F10800
M204 S800
G1 F1200
G1 X46.418 Y80.936 E.03051
G1 X95.466 Y65.646 E2.57835
G1 X129.909 Y65.32 E1.72863
G1 X186.564 Y39.008 E3.13496
G1 X187.44 Y38.922 E.04417
G1 X187.696 Y38.977 E.01314
G1 X188.238 Y39.2 E.02941
G1 X188.86 Y39.793 E.04313
G1 X204.727 Y70.022 E1.71336
G1 X204.882 Y70.678 E.03383
G1 X204.769 Y71.514 E.04234
G1 X194.932 Y92.162 E1.14783
G1 X194.895 Y167.637 E3.78778
G1 X194.668 Y168.371 E.03856
G1 X194.184 Y168.953 E.03799
G1 X193.773 Y169.219 E.02457
G1 X193.18 Y169.402 E.03115
G1 X133.713 Y171.141 E2.98568
G1 X115.507 Y171.141 E.91368
G1 X46.654 Y163.387 E3.47729
G1 X46.013 Y163.124 E.03477
M73 P3 R108
G1 X45.507 Y162.657 E.03456
G1 X45.296 Y162.322 E.01987
G1 X45.09 Y161.647 E.03542
G1 X45.188 Y82.59 E3.96755
G1 X45.419 Y81.843 E.03924
M73 P4 R108
G1 X45.86 Y81.297 E.03522
M204 S1000
G1 X46.106 Y81.527 F10800
M204 S800
G1 F1200
G1 X46.541 Y81.258 E.02567
G1 X95.544 Y65.983 E2.57597
G1 X129.987 Y65.664 E1.72863
M73 Q4 S109
G1 X186.683 Y39.334 E3.1372
G1 X187.397 Y39.265 E.036
G1 X188.076 Y39.506 E.03616
G1 X188.567 Y39.978 E.03418
G1 X204.411 Y70.162 E1.71082
G1 X204.539 Y70.723 E.02888
G1 X204.447 Y71.389 E.03374
G1 X194.587 Y92.084 E1.15045
G1 X194.55 Y167.611 E3.79039
G1 X194.366 Y168.204 E.03116
G1 X193.945 Y168.703 E.03276
G1 X193.645 Y168.898 E.01796
G1 X193.145 Y169.058 E.02635
G1 X133.705 Y170.796 E2.98433
G1 X115.516 Y170.796 E.91283
G1 X46.718 Y163.047 E3.47452
G1 X46.178 Y162.819 E.02942
M73 Q4 S108
G1 X45.761 Y162.423 E.02886
G1 X45.435 Y161.62 E.04349
G1 X45.533 Y82.615 E3.96494
G1 X45.71 Y82.03 E.03067
G1 X46.069 Y81.574 E.02913
M204 S1000
G1 X46.335 Y81.791 F10800
M204 S800
G1 F1200
G1 X46.353 Y81.769 E.00143
G1 X46.663 Y81.582 E.01817
G1 X95.622 Y66.32 E2.57367
G1 X130.064 Y66.008 E1.72857
G1 X186.801 Y39.659 E3.13947
G1 X187.467 Y39.629 E.03346
G1 X187.914 Y39.813 E.02426
G1 X188.274 Y40.162 E.02516
G1 X204.096 Y70.304 E1.70844
G1 X204.193 Y70.712 E.02105
G1 X204.123 Y71.267 E.02807
G1 X194.243 Y92.006 E1.15288
G1 X194.206 Y167.584 E3.79295
G1 X194.062 Y168.039 E.02395
G1 X193.706 Y168.453 E.0274
G1 X193.108 Y168.714 E.03275
G1 X133.697 Y170.451 E2.98287
G1 X115.526 Y170.451 E.91193
G1 X46.78 Y162.707 E3.4719
G1 X46.392 Y162.547 E.02106
G1 X46.014 Y162.187 E.0262
G1 X45.78 Y161.591 E.03213
G1 X45.878 Y82.643 E3.96208
G1 X46.028 Y82.167 E.02505
G1 X46.297 Y81.838 E.02133
M204 S1000
G1 X46.556 Y82.051 F10800
M204 S800
G1 F1200
G1 X46.559 Y82.047 E.00025
G1 X46.787 Y81.904 E.01351
G1 X95.699 Y66.657 E2.57119
G1 X130.142 Y66.353 E1.72862
M73 P4 R107
G1 X186.917 Y39.985 E3.1416
G1 X187.327 Y39.952 E.02064
G1 X187.751 Y40.118 E.02285
G1 X187.981 Y40.345 E.01622
G1 X203.78 Y70.443 E1.70595
G1 X203.85 Y70.757 E.01615
G1 X203.8 Y71.143 E.01953
G1 X193.898 Y91.928 E1.15544
G1 X193.861 Y167.557 E3.79551
G1 X193.74 Y167.908 E.01863
G1 X193.468 Y168.203 E.02014
G1 X193.07 Y168.371 E.02168
G1 X133.69 Y170.106 E2.98131
G1 X115.536 Y170.107 E.91108
M73 P5 R107
G1 X46.845 Y162.368 E3.46913
M73 Q5 S108
G1 X46.561 Y162.245 E.01553
G1 X46.272 Y161.958 E.02044
G1 X46.125 Y161.561 E.02125
G1 X46.222 Y82.673 E3.95907
G1 X46.344 Y82.308 E.01931
G1 X46.518 Y82.097 E.01373
M204 S1000
G1 X46.775 Y82.317 F10800
M204 S800
G1 F1200
G1 X83.531 Y70.766 E1.93358
G1 X95.777 Y66.994 E.64307
G1 X130.22 Y66.697 E1.72862
G1 X187.031 Y40.313 E3.14358
M73 Q5 S107
G1 X187.289 Y40.299 E.01297
G1 X187.544 Y40.396 E.01369
G1 X187.69 Y40.533 E.01005
G1 X203.504 Y70.752 E1.71168
G1 X203.475 Y71.023 E.01368
G1 X193.553 Y91.85 E1.15777
G1 X193.516 Y167.525 E3.79782
G1 X193.252 Y167.934 E.02443
G1 X193.028 Y168.027 E.01217
G1 X133.682 Y169.761 E2.9796
G1 X115.545 Y169.762 E.91022
G1 X46.913 Y162.028 E3.46616
G1 X46.558 Y161.759 E.02235
G1 X46.47 Y161.527 E.01245
G1 X46.567 Y82.7 E3.95601
G1 X46.746 Y82.37 E.01884
M204 S1000
G1 X47.001 Y82.578 F10800
M204 S800
G1 F1200
G1 X95.854 Y67.331 E2.56837
G1 X130.297 Y67.041 E1.72861
G1 X187.212 Y40.636 E3.14876
G1 X187.402 Y40.726 E.01055
G1 X203.159 Y70.761 E1.70217
G1 X203.149 Y70.906 E.00729
G1 X193.208 Y91.772 E1.15995
G1 X193.171 Y167.487 E3.79983
M73 P5 R106
G1 X193.042 Y167.656 E.01067
G1 X133.675 Y169.417 E2.9807
G1 X115.555 Y169.417 E.90937
G1 X46.987 Y161.689 E3.46293
G1 X46.837 Y161.556 E.01006
G1 X46.912 Y82.728 E3.95606
G1 X46.97 Y82.63 E.00572
M204 S1000
;WIPE_START
G1 F8640
G1 X47.001 Y82.578 E-.01398
G1 X50.251 Y81.564 E-.78602
;WIPE_END
G1 Z.75 F720
; printing object lh_keyplate.stl id:0 copy 0
G1 X131.739 Y108.149 F10800
G1 Z.35 F720
G1 E.8 F2100
M204 S800
;TYPE:Perimeter
;WIDTH:0.42
G1 F1200
G1 X131.72 Y108.162 E.00116
G1 X131.221 Y108.268 E.0256
G1 X118.202 Y108.268 E.65337
G1 X117.715 Y108.166 E.02497
G1 X117.306 Y107.881 E.02502
G1 X117.044 Y107.47 E.02446
G1 X116.959 Y107.025 E.02274
G1 X116.959 Y94 E.65367
G1 X117.025 Y93.625 E.01911
G1 X117.255 Y93.21 E.02381
G1 X117.347 Y93.106 E.00697
G1 X117.707 Y92.864 E.02177
G1 X118.206 Y92.757 E.02561
G1 X131.226 Y92.757 E.65342
G1 X131.712 Y92.86 E.02493
G1 X132.116 Y93.14 E.02467
G1 X132.323 Y93.436 E.01813
G1 X132.469 Y93.932 E.02595
G1 X132.469 Y107.025 E.65708
G1 X132.384 Y107.468 E.02264
G1 X132.126 Y107.875 E.02418
G1 X131.787 Y108.114 E.02082
M204 S1000
G1 X131.583 Y107.827 F10800
M204 S800
;TYPE:External perimeter
G1 F1200
G1 X131.525 Y107.862 E.0034
G1 X131.219 Y107.923 E.01566
G1 X118.202 Y107.923 E.65327
G1 X117.83 Y107.836 E.01917
G1 X117.548 Y107.632 E.01747
G1 X117.364 Y107.335 E.01753
G1 X117.304 Y107.025 E.01585
G1 X117.304 Y94 E.65367
G1 X117.388 Y93.634 E.01885
G1 X117.573 Y93.366 E.01634
G1 X117.907 Y93.163 E.01962
G1 X118.207 Y93.102 E.01536
G1 X131.226 Y93.102 E.65337
G1 X131.598 Y93.189 E.01917
G1 X131.879 Y93.394 E.01746
G1 X132.063 Y93.69 E.01749
G1 X132.124 Y94 E.01586
G1 X132.124 Y107.025 E.65367
G1 X132.039 Y107.392 E.01891
G1 X131.804 Y107.696 E.01928
G1 X131.635 Y107.797 E.00988
M204 S1000
;WIPE_START
G1 F8640
G1 X131.583 Y107.827 E-.01386
G1 X131.525 Y107.862 E-.01564
G1 X131.219 Y107.923 E-.07205
G1 X128.194 Y107.923 E-.69845
;WIPE_END
G1 Z.75 F720
G1 X131.739 Y89.099 F10800
G1 Z.35 F720
G1 E.8 F2100
M204 S800
;TYPE:Perimeter
G1 F1200
G1 X131.721 Y89.112 E.00111
G1 X131.221 Y89.218 E.02565
G1 X118.202 Y89.218 E.65337
G1 X117.715 Y89.116 E.02497
M73 P6 R106
G1 X117.306 Y88.831 E.02502
G1 X117.072 Y88.486 E.02092
G1 X116.959 Y87.975 E.02626
G1 X116.959 Y74.95 E.65367
G1 X117.025 Y74.575 E.01911
G1 X117.255 Y74.16 E.02381
G1 X117.392 Y74.021 E.00979
G1 X117.677 Y73.828 E.01727
G1 X118.203 Y73.707 E.02709
G1 X131.226 Y73.707 E.65357
G1 X131.738 Y73.822 E.02634
M73 Q6 S107
G1 X132.116 Y74.09 E.02325
G1 X132.323 Y74.386 E.01813
