; generated by PrusaSlicer 2.9.4 on 2026-01-06 at 17:38:12 UTC


;
;
; 

; external perimeters extrusion width = 0.60mm
; perimeters extrusion width = 0.50mm
; infill extrusion width = 0.50mm
; solid infill extrusion width = 0.50mm
; top infill extrusion width = 0.45mm
; support material extrusion width = 0.38mm
; first layer extrusion width = 0.42mm

M73 P0 R124
M73 Q0 S124
M201 X1000 Y1000 Z200 E5000 ; sets maximum accelerations, mm/sec^2
M203 X200 Y200 Z12 E120 ; sets maximum feedrates, mm / sec
M204 S1250 T1250 ; sets acceleration (S) and retract acceleration (R), mm/sec^2
M205 X8.00 Y8.00 Z0.40 E4.50 ; sets the jerk limits, mm/sec
M205 S0 T0 ; sets the minimum extruding and travel feed rate, mm/sec

; printing object backplate.stl id:0 copy 0
; stop printing object backplate.stl id:0 copy 0

;TYPE:Custom
M862.3 P "MK3S" ; printer model check
M862.1 P0.4 ; nozzle diameter check
M115 U3.14.1 ; tell printer latest fw version
G90 ; use absolute coordinates
M83 ; extruder relative mode
M104 S215 ; set extruder temp
M140 S60 ; set bed temp
M190 S60 ; wait for bed temp
M109 S215 ; wait for extruder temp
G28 W ; home all without mesh bed level
G80 X39.6439 Y33.1834 W170.716 H143.406 ; mesh bed levelling

G1 Z0.2 F720
G1 Y-3 F1000 ; go outside print area
G92 E0
G1 X60 E9 F1000 ; intro line
G1 X100 E12.5 F1000 ; intro line

G92 E0
M221 S95

; Don't change E values below. Excessive value can damage the printer.

M907 E538 ; set extruder motor current
G21 ; set units to millimeters
G90 ; use absolute coordinates
M83 ; use relative distances for extrusion

M900 K0.05 ; Filament gcode LA 1.5
M900 K30 ; Filament gcode LA 1.0




M107
;LAYER_CHANGE
;Z:0.35
;HEIGHT:0.35
G1 E-.8 F2100
G1 Z.75 F720
G1 X57.315 Y35.731 F10800
G1 Z.35 F720
G1 E.8 F2100
M204 S800
;TYPE:Skirt/Brim
;WIDTH:0.42
G1 F1200
G1 X58.542 Y34.683 E.08098
G1 X62.407 Y33.375 E.20478
G1 X63.718 Y33.349 E.06581
G1 X155.834 Y60.527 E4.81994
G1 X206.575 Y76.341 E2.66729
G1 X207.674 Y77.124 E.06772
G1 X209.662 Y79.819 E.16807
G1 X210.086 Y81.106 E.068
G1 X210.188 Y163.366 E4.1283
G1 X209.636 Y164.815 E.07782
G1 X207.041 Y167.723 E.1956
G1 X205.663 Y168.435 E.07784
G1 X134.707 Y176.413 E3.58343
G1 X116.157 Y176.415 E.93095
G1 X54.822 Y174.622 E3.07947
G1 X53.327 Y173.964 E.08197
G1 X50.444 Y170.998 E.20758
G1 X49.841 Y169.705 E.0716
G1 X39.827 Y72.145 E4.92186
G1 X39.863 Y69.472 E.13416
G1 X40.111 Y68.504 E.05015
G1 X57.287 Y35.784 E1.85458
M204 S1000
;WIPE_START
G1 F8640
G1 X57.315 Y35.731 E-.01384
G1 X58.542 Y34.683 E-.37259
G1 X60.239 Y34.109 E-.41357
;WIPE_END
G1 Z.75 F720
G1 X59.306 Y37.796 F10800
G1 Z.35 F720
G1 E.8 F2100
M204 S800
G1 F1200
G1 X60.042 Y37.058 E.05231
G1 X60.808 Y36.586 E.04515
G1 X62.142 Y36.196 E.06975
G1 X63.507 Y36.198 E.0685
G1 X64.443 Y36.448 E.04862
G1 X120.713 Y62.567 E3.11335
G1 X155.155 Y62.951 E1.72861
M73 P0 R123
G1 X204.563 Y78.351 E2.59724
G1 X205.975 Y79.223 E.08329
G1 X207.058 Y80.624 E.08887
G1 X207.571 Y82.384 E.092
G1 X207.669 Y161.836 E3.98737
G1 X207.285 Y163.309 E.07639
G1 X206.453 Y164.607 E.07737
G1 X205.264 Y165.576 E.07698
G1 X203.836 Y166.109 E.07649
G1 X134.571 Y173.9 E3.49805
G1 X116.227 Y173.899 E.92061
G1 X56.609 Y172.157 E2.99326
G1 X55.095 Y171.735 E.07888
M73 Q0 S123
G1 X53.818 Y170.874 E.07729
G1 X52.876 Y169.642 E.07783
G1 X52.346 Y167.835 E.09451
G1 X52.309 Y92.786 E3.7664
G1 X42.645 Y72.501 E1.12765
G1 X42.376 Y70.311 E.11073
G1 X42.754 Y68.883 E.07413
G1 X58.813 Y38.291 E1.73397
G1 X59.263 Y37.839 E.03201
M204 S1000
G1 X59.503 Y38.08 F10800
M204 S800
G1 F1200
G1 X60.271 Y37.317 E.05433
G1 X60.929 Y36.91 E.03883
G1 X62.168 Y36.541 E.06488
G1 X63.441 Y36.537 E.06389
G1 X64.312 Y36.767 E.04521
G1 X120.635 Y62.911 E3.11629
G1 X155.077 Y63.288 E1.72861
G1 X204.44 Y78.674 E2.59488
G1 X205.724 Y79.461 E.07558
G1 X206.737 Y80.754 E.08243
G1 X207.226 Y82.41 E.08666
G1 X207.324 Y161.814 E3.98497
G1 X206.958 Y163.195 E.0717
G1 X206.213 Y164.359 E.06936
G1 X205.115 Y165.264 E.07141
G1 X203.776 Y165.768 E.0718
G1 X134.561 Y173.555 E3.49553
G1 X116.235 Y173.554 E.91971
M73 P1 R123
M73 Q1 S123
G1 X56.64 Y171.812 E2.99211
G1 X55.263 Y171.432 E.07169
G1 X54.065 Y170.632 E.0723
G1 X53.178 Y169.475 E.07317
G1 X52.691 Y167.811 E.08701
G1 X52.654 Y92.708 E3.76911
G1 X42.968 Y72.378 E1.13016
G1 X42.718 Y70.366 E.10175
G1 X43.069 Y69.026 E.06952
G1 X59.106 Y38.475 E1.73163
G1 X59.461 Y38.122 E.02512
M204 S1000
G1 X59.699 Y38.364 F10800
M204 S800
G1 F1200
G1 X60.498 Y37.577 E.05628
G1 X61.089 Y37.216 E.03476
G1 X62.24 Y36.879 E.06019
G1 X63.417 Y36.882 E.05907
G1 X64.18 Y37.086 E.03964
G1 X120.557 Y63.255 E3.11928
G1 X155 Y63.625 E1.72865
G1 X204.317 Y78.997 E2.59246
G1 X205.515 Y79.737 E.07067
G1 X206.444 Y80.939 E.07624
G1 X206.881 Y82.435 E.07822
G1 X206.979 Y161.792 E3.98261
M73 P1 R122
G1 X206.652 Y163.033 E.06441
G1 X205.97 Y164.112 E.06406
G1 X204.965 Y164.952 E.06573
G1 X203.715 Y165.428 E.06713
G1 X134.551 Y173.211 E3.49297
G1 X116.242 Y173.21 E.91885
G1 X56.671 Y171.468 E2.9909
G1 X55.383 Y171.108 E.06712
G1 X54.312 Y170.39 E.06471
G1 X53.482 Y169.309 E.0684
G1 X53.035 Y167.786 E.07966
G1 X52.999 Y92.63 E3.77177
G1 X43.291 Y72.255 E1.13267
G1 X43.064 Y70.358 E.09588
G1 X43.383 Y69.17 E.06173
G1 X59.398 Y38.66 E1.7293
G1 X59.656 Y38.406 E.01817
M73 Q1 S122
M204 S1000
G1 X59.892 Y38.648 F10800
M204 S800
G1 F1200
G1 X60.723 Y37.839 E.0582
G1 X61.247 Y37.523 E.03071
G1 X62.266 Y37.224 E.0533
G1 X63.352 Y37.221 E.0545
G1 X64.049 Y37.405 E.03618
G1 X120.48 Y63.599 E3.12227
G1 X154.922 Y63.962 E1.7286
G1 X204.195 Y79.32 E2.59015
G1 X205.264 Y79.975 E.06292
G1 X206.123 Y81.069 E.06981
G1 X206.536 Y82.46 E.07282
G1 X206.634 Y161.769 E3.9802
G1 X206.326 Y162.918 E.0597
G1 X205.728 Y163.865 E.05621
G1 X204.766 Y164.669 E.06292
G1 X203.655 Y165.088 E.05959
G1 X134.542 Y172.866 E3.49039
G1 X116.25 Y172.865 E.918
G1 X56.702 Y171.124 E2.98975
G1 X55.55 Y170.805 E.05999
G1 X54.558 Y170.147 E.05974
G1 X53.785 Y169.143 E.06359
G1 X53.38 Y167.761 E.07227
G1 X53.344 Y92.552 E3.77443
G1 X43.615 Y72.132 E1.13517
G1 X43.406 Y70.414 E.08686
G1 X43.698 Y69.313 E.05716
G1 X59.691 Y38.845 E1.72692
G1 X59.849 Y38.69 E.01111
M204 S1000
G1 X60.083 Y38.933 F10800
M204 S800
G1 F1200
G1 X60.947 Y38.102 E.06016
G1 X61.403 Y37.831 E.02662
G1 X62.337 Y37.562 E.04878
G1 X63.327 Y37.566 E.04968
G1 X63.917 Y37.724 E.03065
G1 X120.402 Y63.943 E3.12525
G1 X154.844 Y64.299 E1.7286
G1 X204.073 Y79.643 E2.58783
G1 X205.014 Y80.215 E.05527
G1 X205.803 Y81.201 E.06338
G1 X206.192 Y82.486 E.06738
G1 X206.29 Y161.746 E3.97774
G1 X206.001 Y162.802 E.05495
M73 P2 R122
M73 Q2 S122
G1 X205.485 Y163.619 E.04849
G1 X204.615 Y164.358 E.05729
G1 X203.595 Y164.747 E.05479
G1 X134.532 Y172.521 E3.48788
G1 X116.257 Y172.52 E.91715
M73 P2 R121
G1 X56.732 Y170.78 E2.98859
G1 X55.716 Y170.502 E.05286
G1 X54.804 Y169.905 E.0547
G1 X54.089 Y168.978 E.05875
G1 X53.725 Y167.736 E.06495
G1 X53.688 Y92.474 E3.77709
G1 X43.938 Y72.008 E1.1377
G1 X43.748 Y70.469 E.07782
G1 X44.012 Y69.455 E.05258
G1 X59.983 Y39.03 E1.72449
G1 X60.04 Y38.975 E.00398
M204 S1000
G1 X60.275 Y39.216 F10800
M204 S800
G1 F1200
G1 X61.17 Y38.365 E.06198
G1 X61.522 Y38.156 E.02054
G1 X62.364 Y37.907 E.04407
G1 X63.262 Y37.905 E.04507
G1 X63.786 Y38.044 E.02721
G1 X120.324 Y64.288 E3.12819
G1 X154.767 Y64.636 E1.72864
G1 X203.949 Y79.966 E2.58537
G1 X204.807 Y80.492 E.05051
M73 Q2 S121
G1 X205.512 Y81.388 E.05722
G1 X205.847 Y82.511 E.05881
G1 X205.945 Y161.722 E3.97528
G1 X205.675 Y162.685 E.05019
G1 X205.24 Y163.376 E.04098
G1 X204.462 Y164.047 E.05156
G1 X203.534 Y164.407 E.04995
G1 X134.522 Y172.176 E3.48531
G1 X116.265 Y172.175 E.91624
G1 X56.762 Y170.436 E2.98749
G1 X55.88 Y170.197 E.04586
G1 X55.05 Y169.661 E.04959
G1 X54.393 Y168.814 E.0538
G1 X54.07 Y167.712 E.05763
G1 X54.033 Y92.396 E3.7798
G1 X44.261 Y71.885 E1.14022
G1 X44.09 Y70.523 E.06889
G1 X44.327 Y69.597 E.04797
G1 X60.247 Y39.269 E1.71899
M204 S1000
G1 X60.552 Y39.429 F10800
M204 S800
G1 F1200
G1 X60.567 Y39.402 E.00155
G1 X61.391 Y38.631 E.05663
G1 X61.676 Y38.465 E.01655
G1 X62.435 Y38.245 E.03966
G1 X63.236 Y38.25 E.0402
G1 X63.653 Y38.363 E.02168
G1 X120.246 Y64.632 E3.13123
G1 X154.689 Y64.973 E1.72864
G1 X203.827 Y80.29 E2.58307
G1 X204.558 Y80.733 E.0429
G1 X205.192 Y81.522 E.0508
G1 X205.502 Y82.538 E.05331
G1 X205.6 Y161.698 E3.97272
G1 X205.351 Y162.566 E.04532
G1 X204.993 Y163.134 E.0337
G1 X204.306 Y163.738 E.04591
G1 X203.472 Y164.067 E.04499
G1 X134.513 Y171.831 E3.48264
G1 X116.272 Y171.83 E.91544
G1 X56.792 Y170.092 E2.98633
G1 X56.042 Y169.891 E.03897
G1 X55.295 Y169.417 E.0444
G1 X54.698 Y168.652 E.0487
G1 X54.415 Y167.687 E.05047
G1 X54.378 Y92.318 E3.78246
G1 X44.584 Y71.761 E1.14278
M73 P2 R120
G1 X44.433 Y70.575 E.06
G1 X44.642 Y69.739 E.04325
G1 X60.525 Y39.482 E1.71498
M204 S1000
G1 X60.83 Y39.643 F10800
M204 S800
G1 F1200
G1 X60.858 Y39.59 E.00301
G1 X61.796 Y38.789 E.0619
G1 X62.461 Y38.59 E.03484
G1 X63.171 Y38.589 E.03563
G1 X63.522 Y38.682 E.01822
G1 X120.168 Y64.976 E3.13417
G1 X154.611 Y65.31 E1.72863
G1 X203.704 Y80.612 E2.58069
M73 P3 R120
M73 Q3 S121
G1 X204.35 Y81.009 E.03805
G1 X204.9 Y81.708 E.04464
G1 X205.157 Y82.563 E.04481
G1 X205.255 Y161.673 E3.97021
G1 X205.027 Y162.445 E.0404
G1 X204.744 Y162.894 E.02664
G1 X204.148 Y163.43 E.04023
G1 X203.41 Y163.727 E.03992
G1 X134.503 Y171.486 E3.48001
G1 X116.28 Y171.486 E.91454
M73 Q3 S120
G1 X56.821 Y169.747 E2.98528
G1 X56.201 Y169.585 E.03216
G1 X55.54 Y169.173 E.03909
G1 X55.003 Y168.49 E.0436
G1 X54.76 Y167.662 E.04331
G1 X54.723 Y92.24 E3.78512
G1 X44.907 Y71.637 E1.14534
G1 X44.775 Y70.625 E.05122
G1 X44.958 Y69.88 E.0385
G1 X60.802 Y39.696 E1.71082
M204 S1000
G1 X61.107 Y39.856 F10800
M204 S800
G1 F1200
G1 X61.148 Y39.778 E.00442
G1 X61.918 Y39.112 E.05109
G1 X62.491 Y38.934 E.03011
G1 X63.108 Y38.929 E.03097
G1 X63.392 Y39.002 E.01472
G1 X120.091 Y65.32 E3.13709
G1 X154.534 Y65.646 E1.72863
G1 X203.582 Y80.936 E2.57835
G1 X204.102 Y81.251 E.03051
G1 X204.581 Y81.843 E.03822
G1 X204.812 Y82.59 E.03924
G1 X204.91 Y161.647 E3.96755
G1 X204.704 Y162.322 E.03542
G1 X204.493 Y162.657 E.01987
G1 X203.987 Y163.124 E.03456
G1 X203.346 Y163.387 E.03477
G1 X134.493 Y171.141 E3.47729
G1 X116.287 Y171.141 E.91368
G1 X56.85 Y169.403 E2.98418
G1 X56.357 Y169.276 E.02555
G1 X55.784 Y168.927 E.03367
G1 X55.31 Y168.331 E.03822
G1 X55.105 Y167.637 E.03632
G1 X55.068 Y92.162 E3.78778
G1 X45.23 Y71.513 E1.1479
G1 X45.118 Y70.673 E.04253
G1 X45.273 Y70.021 E.03363
G1 X61.08 Y39.909 E1.70676
M204 S1000
G1 X61.385 Y40.069 F10800
M204 S800
G1 F1200
G1 X61.439 Y39.967 E.00579
G1 X62.039 Y39.439 E.04011
G1 X62.565 Y39.272 E.0277
G1 X63.26 Y39.321 E.03497
G1 X120.013 Y65.664 E3.14007
G1 X154.456 Y65.983 E1.72863
G1 X203.459 Y81.258 E2.57597
M73 P3 R119
G1 X203.894 Y81.527 E.02567
G1 X204.29 Y82.03 E.03213
G1 X204.467 Y82.615 E.03067
G1 X204.565 Y161.62 E3.96494
G1 X204.239 Y162.423 E.04349
G1 X203.822 Y162.819 E.02886
G1 X203.282 Y163.047 E.02942
G1 X134.484 Y170.796 E3.47452
G1 X116.295 Y170.796 E.91283
G1 X56.879 Y169.059 E2.98312
G1 X56.51 Y168.966 E.0191
G1 X56.027 Y168.681 E.02815
G1 X55.618 Y168.174 E.03269
G1 X55.45 Y167.611 E.02949
G1 X55.413 Y92.084 E3.79039
G1 X45.554 Y71.39 E1.15039
M73 Q3 S119
G1 X45.464 Y70.664 E.03671
G1 X45.588 Y70.164 E.02585
G1 X61.357 Y40.123 E1.70272
M204 S1000
G1 X61.662 Y40.283 F10800
M204 S800
G1 F1200
G1 X61.728 Y40.158 E.00709
G1 X62.222 Y39.735 E.03264
G1 X62.596 Y39.617 E.01968
G1 X63.13 Y39.641 E.02683
G1 X119.936 Y66.008 E3.14299
G1 X154.378 Y66.32 E1.72857
M73 P4 R119
M73 Q4 S119
G1 X203.337 Y81.582 E2.57367
G1 X203.647 Y81.769 E.01817
G1 X203.972 Y82.167 E.02579
G1 X204.122 Y82.643 E.02505
G1 X204.22 Y161.591 E3.96208
G1 X203.986 Y162.187 E.03213
G1 X203.608 Y162.547 E.0262
G1 X203.22 Y162.707 E.02106
G1 X134.474 Y170.451 E3.4719
G1 X116.303 Y170.451 E.91193
G1 X56.906 Y168.715 E2.98217
G1 X56.269 Y168.433 E.03496
G1 X55.944 Y168.052 E.02513
G1 X55.794 Y167.585 E.02462
G1 X55.757 Y92.006 E3.793
G1 X45.877 Y71.267 E1.15288
G1 X45.807 Y70.712 E.02807
G1 X45.904 Y70.304 E.02105
G1 X61.634 Y40.336 E1.69856
M204 S1000
G1 X61.94 Y40.496 F10800
M204 S800
G1 F1200
G1 X62.018 Y40.347 E.00844
G1 X62.365 Y40.05 E.02292
G1 X62.97 Y39.955 E.03073
G1 X119.858 Y66.353 E3.14738
G1 X154.301 Y66.657 E1.72862
G1 X203.213 Y81.904 E2.57119
G1 X203.441 Y82.047 E.01351
G1 X203.656 Y82.308 E.01697
G1 X203.778 Y82.673 E.01931
G1 X203.875 Y161.561 E3.95907
G1 X203.728 Y161.958 E.02125
G1 X203.439 Y162.245 E.02044
G1 X203.155 Y162.368 E.01553
G1 X134.464 Y170.107 E3.46913
G1 X116.31 Y170.106 E.91108
M73 P4 R118
G1 X56.933 Y168.371 E2.98116
G1 X56.509 Y168.183 E.02328
G1 X56.24 Y167.867 E.02083
G1 X56.139 Y167.557 E.01636
G1 X56.102 Y91.928 E3.79551
G1 X46.2 Y71.143 E1.15544
G1 X46.15 Y70.757 E.01953
G1 X46.22 Y70.443 E.01615
G1 X61.912 Y40.549 E1.69439
M204 S1000
G1 X62.218 Y40.709 F10800
M204 S800
G1 F1200
G1 X62.308 Y40.536 E.00979
G1 X62.507 Y40.367 E.0131
G1 X62.909 Y40.299 E.02046
G1 X119.78 Y66.697 E3.14661
G1 X154.223 Y66.994 E1.72862
G1 X166.469 Y70.766 E.64307
M73 Q4 S118
G1 X203.225 Y82.317 E1.93358
G1 X203.433 Y82.7 E.02187
G1 X203.53 Y161.527 E3.95601
G1 X203.442 Y161.759 E.01245
G1 X203.087 Y162.028 E.02235
G1 X134.455 Y169.762 E3.46616
G1 X116.318 Y169.761 E.91022
G1 X56.959 Y168.026 E2.98026
G1 X56.74 Y167.925 E.0121
G1 X56.484 Y167.525 E.02383
G1 X56.447 Y91.85 E3.79782
G1 X46.525 Y71.023 E1.15777
G1 X46.496 Y70.752 E.01368
G1 X62.19 Y40.763 E1.69866
M204 S1000
G1 X62.495 Y40.923 F10800
M73 P5 R118
M73 Q5 S118
M204 S800
G1 F1200
G1 X62.598 Y40.726 E.01116
G1 X62.788 Y40.636 E.01055
G1 X119.703 Y67.041 E3.14876
G1 X154.146 Y67.331 E1.72861
G1 X202.999 Y82.578 E2.56837
G1 X203.088 Y82.728 E.00875
G1 X203.163 Y161.556 E3.95606
G1 X203.013 Y161.689 E.01006
G1 X134.445 Y169.417 E3.46293
G1 X116.325 Y169.417 E.90937
G1 X56.958 Y167.656 E2.9807
G1 X56.829 Y167.487 E.01067
G1 X56.792 Y91.772 E3.79983
G1 X46.851 Y70.906 E1.15995
M73 P5 R117
G1 X46.841 Y70.761 E.00729
G1 X62.467 Y40.976 E1.68801
M204 S1000
;WIPE_START
G1 F8640
G1 X62.495 Y40.923 E-.01384
G1 X62.598 Y40.726 E-.05133
G1 X62.788 Y40.636 E-.04854
G1 X65.484 Y41.887 E-.68629
;WIPE_END
G1 Z.75 F720
; printing object backplate.stl id:0 copy 0
G1 X95.281 Y107.193 F10800
G1 Z.35 F720
G1 E.8 F2100
M204 S800
;TYPE:Perimeter
;WIDTH:0.42
G1 F1200
G1 X95.282 Y107.189 E.00021
G1 X95.488 Y106.71 E.02617
G1 X95.813 Y106.315 E.02567
G1 X96.221 Y106.028 E.02503
G1 X96.704 Y105.86 E.02566
G1 X97.142 Y105.82 E.02207
G1 X97.619 Y105.9 E.02427
G1 X98.06 Y106.102 E.02434
G1 X98.432 Y106.41 E.02424
G1 X98.713 Y106.805 E.02433
G1 X98.882 Y107.258 E.02426
G1 X98.927 Y107.74 E.02429
G1 X98.847 Y108.217 E.02427
G1 X98.645 Y108.657 E.0243
G1 X98.337 Y109.03 E.02428
G1 X97.943 Y109.31 E.02426
G1 X97.489 Y109.479 E.02431
G1 X97.007 Y109.525 E.0243
G1 X96.53 Y109.444 E.02428
G1 X96.09 Y109.243 E.02428
G1 X95.717 Y108.935 E.02428
G1 X95.504 Y108.657 E.01758
G1 X95.295 Y108.196 E.0254
G1 X95.218 Y107.695 E.02544
G1 X95.274 Y107.252 E.02241
M204 S1000
G1 X95.618 Y107.282 F10800
M204 S800
;TYPE:External perimeter
G1 F1200
G1 X95.621 Y107.26 E.00111
G1 X95.778 Y106.898 E.0198
G1 X96.023 Y106.588 E.01983
G1 X96.344 Y106.351 E.02002
G1 X96.749 Y106.202 E.02166
G1 X97.097 Y106.162 E.01758
G1 X97.487 Y106.219 E.01978
G1 X97.85 Y106.375 E.01983
G1 X98.159 Y106.62 E.01979
G1 X98.394 Y106.937 E.0198
G1 X98.54 Y107.303 E.01978
G1 X98.585 Y107.695 E.0198
G1 X98.528 Y108.085 E.01978
G1 X98.372 Y108.447 E.01978
G1 X98.127 Y108.756 E.01979
G1 X97.811 Y108.992 E.01979
G1 X97.444 Y109.137 E.0198
G1 X97.052 Y109.183 E.01981
G1 X96.662 Y109.126 E.01978
G1 X96.3 Y108.969 E.0198
G1 X95.991 Y108.725 E.01976
G1 X95.778 Y108.447 E.01758
G1 X95.61 Y108.042 E.022
G1 X95.564 Y107.65 E.01981
G1 X95.609 Y107.342 E.01562
M204 S1000
;WIPE_START
G1 F8640
G1 X95.618 Y107.282 E-.01401
G1 X95.621 Y107.26 E-.00513
G1 X95.778 Y106.898 E-.09111
G1 X96.023 Y106.588 E-.09124
G1 X96.344 Y106.351 E-.09213
G1 X96.749 Y106.202 E-.09964
G1 X97.097 Y106.162 E-.08088
G1 X97.487 Y106.219 E-.09101
G1 X97.85 Y106.375 E-.09123
