; generated by PrusaSlicer 2.9.4 on 2026-01-06 at 17:39:04 UTC


;
;
; 

; external perimeters extrusion width = 0.60mm
; perimeters extrusion width = 0.50mm
; infill extrusion width = 0.50mm
; solid infill extrusion width = 0.50mm
; top infill extrusion width = 0.45mm
; support material extrusion width = 0.38mm
; first layer extrusion width = 0.42mm

M73 P0 R8
M73 Q0 S8
M201 X1000 Y1000 Z200 E5000 ; sets maximum accelerations, mm/sec^2
M203 X200 Y200 Z12 E120 ; sets maximum feedrates, mm / sec
M204 S1250 T1250 ; sets acceleration (S) and retract acceleration (R), mm/sec^2
M205 X8.00 Y8.00 Z0.40 E4.50 ; sets the jerk limits, mm/sec
M205 S0 T0 ; sets the minimum extruding and travel feed rate, mm/sec

; printing object rp2040_zero_mount.stl id:0 copy 0
; stop printing object rp2040_zero_mount.stl id:0 copy 0

;TYPE:Custom
M862.3 P "MK3S" ; printer model check
M862.1 P0.4 ; nozzle diameter check
M115 U3.14.1 ; tell printer latest fw version
G90 ; use absolute coordinates
M83 ; extruder relative mode
M104 S215 ; set extruder temp
M140 S60 ; set bed temp
M190 S60 ; wait for bed temp
M109 S215 ; wait for extruder temp
G28 W ; home all without mesh bed level
G80 X107.355 Y87.7551 W35.2898 H34.4898 ; mesh bed levelling

G1 Z0.2 F720
G1 Y-3 F1000 ; go outside print area
G92 E0
G1 X60 E9 F1000 ; intro line
G1 X100 E12.5 F1000 ; intro line

G92 E0
M221 S95

; Don't change E values below. Excessive value can damage the printer.

M907 E538 ; set extruder motor current
G21 ; set units to millimeters
G90 ; use absolute coordinates
M83 ; use relative distances for extrusion

M900 K0.05 ; Filament gcode LA 1.5
M900 K30 ; Filament gcode LA 1.0




M107
;LAYER_CHANGE
;Z:0.35
;HEIGHT:0.35
G1 E-.8 F2100
M73 P1 R8
M73 Q1 S8
G1 Z.75 F720
G1 X109.616 Y90.89 F10800
G1 Z.35 F720
G1 E.8 F2100
M204 S800
;TYPE:Skirt/Brim
;WIDTH:0.42
G1 F1200
G1 X110.276 Y90.203 E.04781
G1 X111.525 Y89.245 E.079
G1 X112.359 Y88.785 E.0478
G1 X113.29 Y88.399 E.05058
G1 X114.483 Y88.079 E.06199
G1 X115.947 Y87.928 E.07386
G1 X134.076 Y87.93 E.90982
G1 X135.517 Y88.079 E.0727
G1 X136.71 Y88.399 E.06199
G1 X137.896 Y88.91 E.06481
G1 X138.711 Y89.403 E.0478
G1 X139.51 Y90.016 E.05054
G1 X140.384 Y90.89 E.06203
G1 X141.155 Y91.925 E.06477
G1 X141.615 Y92.759 E.0478
G1 X142.001 Y93.69 E.05058
G1 X142.265 Y94.605 E.04779
G1 X142.472 Y96.346 E.08799
G1 X142.468 Y113.796 E.87574
G1 X142.321 Y115.117 E.0667
G1 X142.092 Y116.041 E.04777
G1 X141.615 Y117.241 E.06481
G1 X140.997 Y118.311 E.06201
G1 X140.384 Y119.11 E.05054
G1 X139.724 Y119.797 E.04781
M73 Q2 S8
G1 X138.475 Y120.755 E.079
G1 X137.641 Y121.215 E.0478
G1 X136.512 Y121.667 E.06103
G1 X135.71 Y121.882 E.04167
G1 X134.554 Y122.046 E.0586
G1 X112.688 Y122.072 E1.09737
M73 P2 R8
G1 X110.212 Y121.862 E.12471
G1 X108.867 Y121.235 E.07447
G1 X108.182 Y120.072 E.06774
G1 X107.528 Y116.913 E.1619
G1 X107.528 Y96.346 E1.03217
G1 X107.679 Y94.883 E.07381
G1 X107.908 Y93.959 E.04777
G1 X108.385 Y92.759 E.06481
G1 X109.003 Y91.689 E.06201
G1 X109.579 Y90.937 E.04754
M204 S1000
;WIPE_START
G1 F8640
G1 X109.616 Y90.89 E-.01381
G1 X110.276 Y90.203 E-.21997
G1 X111.525 Y89.245 E-.36346
G1 X112.294 Y88.821 E-.20276
;WIPE_END
G1 Z.75 F720
G1 X111.536 Y92.511 F10800
G1 Z.35 F720
G1 E.8 F2100
M204 S800
G1 F1200
G1 X113.463 Y91.042 E.1216
G1 X114.613 Y90.632 E.06127
G1 X115.816 Y90.454 E.06103
G1 X134.164 Y90.453 E.92081
G1 X135.38 Y90.63 E.06167
G1 X136.499 Y91.028 E.0596
G1 X138.027 Y92.071 E.09285
G1 X139.326 Y93.802 E.10861
G1 X139.73 Y94.869 E.05726
G1 X139.927 Y95.975 E.05638
G1 X139.956 Y113.671 E.88809
G1 X139.618 Y115.501 E.09339
M73 P3 R8
M73 Q3 S8
G1 X139.125 Y116.557 E.05849
G1 X138.464 Y117.489 E.05734
G1 X136.541 Y118.955 E.12135
G1 X135.323 Y119.385 E.06482
G1 X134.06 Y119.556 E.06396
G1 X114.441 Y119.556 E.9846
G1 X113.051 Y119.233 E.07162
G1 X111.776 Y118.485 E.07419
G1 X110.974 Y117.632 E.05876
G1 X110.594 Y117.068 E.03413
G1 X110.044 Y115.228 E.09638
G1 X110.044 Y96.327 E.94856
G1 X110.382 Y94.499 E.09329
G1 X110.875 Y93.443 E.05849
G1 X111.501 Y92.56 E.05432
M204 S1000
G1 X111.783 Y92.759 F10800
M204 S800
G1 F1200
G1 X111.802 Y92.732 E.00166
G1 X113.605 Y91.358 E.11376
G1 X114.68 Y90.97 E.05736
G1 X115.854 Y90.797 E.05955
G1 X134.127 Y90.796 E.91705
G1 X135.281 Y90.96 E.0585
G1 X136.362 Y91.346 E.05761
G1 X137.808 Y92.339 E.08803
G1 X139.013 Y93.948 E.10088
G1 X139.393 Y94.945 E.05355
G1 X139.585 Y96.021 E.05485
G1 X139.611 Y113.656 E.88503
G1 X139.296 Y115.376 E.08776
M73 P4 R8
M73 Q4 S8
G1 X138.835 Y116.371 E.05503
G1 X138.198 Y117.268 E.05521
G1 X136.4 Y118.64 E.1135
G1 X135.259 Y119.045 E.06076
G1 X134.048 Y119.211 E.06134
G1 X114.461 Y119.211 E.98299
G1 X113.156 Y118.904 E.06728
G1 X111.974 Y118.202 E.06899
G1 X111.236 Y117.408 E.0544
G1 X110.895 Y116.898 E.03079
G1 X110.389 Y115.203 E.08877
G1 X110.389 Y96.342 E.94656
G1 X110.704 Y94.624 E.08766
G1 X111.165 Y93.629 E.05503
G1 X111.748 Y92.808 E.05053
M204 S1000
G1 X112.028 Y93.008 F10800
M204 S800
G1 F1200
G1 X112.068 Y92.953 E.00341
G1 X113.747 Y91.673 E.10596
G1 X114.781 Y91.301 E.05515
G1 X115.89 Y91.14 E.05624
G1 X134.092 Y91.139 E.91348
G1 X135.182 Y91.291 E.05523
G1 X136.226 Y91.663 E.05562
G1 X137.55 Y92.569 E.08051
G1 X138.699 Y94.094 E.09583
G1 X139.065 Y95.053 E.05151
G1 X139.243 Y96.066 E.05162
G1 X139.266 Y113.641 E.88202
G1 X138.974 Y115.251 E.08212
M73 P5 R8
M73 Q5 S8
G1 X138.529 Y116.211 E.0531
G1 X137.933 Y117.046 E.05148
G1 X136.259 Y118.324 E.1057
G1 X135.16 Y118.714 E.05852
G1 X134.037 Y118.866 E.05687
G1 X114.482 Y118.866 E.98139
G1 X113.263 Y118.575 E.0629
G1 X112.174 Y117.92 E.06378
G1 X111.5 Y117.185 E.05005
G1 X111.196 Y116.728 E.02755
G1 X110.734 Y115.178 E.08117
G1 X110.734 Y96.358 E.9445
G1 X111.026 Y94.749 E.08207
G1 X111.471 Y93.789 E.0531
G1 X111.994 Y93.057 E.04515
M204 S1000
G1 X112.274 Y93.258 F10800
M204 S800
G1 F1200
G1 X112.333 Y93.175 E.00511
G1 X113.889 Y91.989 E.09819
G1 X114.881 Y91.631 E.05293
G1 X115.926 Y91.483 E.05297
G1 X134.056 Y91.482 E.90987
G1 X135.117 Y91.63 E.05376
G1 X136.087 Y91.98 E.05175
G1 X137.331 Y92.837 E.07581
G1 X138.386 Y94.239 E.08806
G1 X138.737 Y95.16 E.04946
G1 X138.9 Y96.109 E.04832
G1 X138.921 Y113.626 E.87911
G1 X138.651 Y115.127 E.07654
M73 P6 R8
M73 Q6 S8
G1 X138.238 Y116.024 E.04956
G1 X137.667 Y116.825 E.04937
G1 X136.117 Y118.008 E.09786
G1 X135.095 Y118.375 E.0545
G1 X134.025 Y118.521 E.0542
G1 X114.503 Y118.521 E.97973
G1 X113.371 Y118.246 E.05846
G1 X112.376 Y117.639 E.05849
G1 X111.498 Y116.56 E.06981
G1 X111.079 Y115.153 E.07368
G1 X111.079 Y96.373 E.94249
G1 X111.349 Y94.873 E.07649
G1 X111.762 Y93.976 E.04956
G1 X112.239 Y93.306 E.04128
M204 S1000
G1 X112.52 Y93.507 F10800
M204 S800
G1 F1200
G1 X112.599 Y93.396 E.00684
G1 X114.031 Y92.304 E.09038
G1 X114.98 Y91.962 E.05062
G1 X115.962 Y91.827 E.04975
G1 X134.021 Y91.825 E.90631
G1 X135.017 Y91.961 E.05045
G1 X135.95 Y92.297 E.04977
G1 X137.073 Y93.068 E.06836
G1 X138.073 Y94.386 E.08303
G1 X138.4 Y95.235 E.04566
G1 X138.558 Y96.153 E.04675
G1 X138.576 Y113.611 E.87615
G1 X138.328 Y115.004 E.07101
M73 P7 R8
M73 Q7 S8
G1 X137.948 Y115.837 E.04595
G1 X137.401 Y116.604 E.04728
G1 X135.975 Y117.693 E.09005
G1 X135.03 Y118.036 E.05045
G1 X134.013 Y118.176 E.05152
G1 X114.524 Y118.176 E.97807
G1 X113.481 Y117.918 E.05392
G1 X112.58 Y117.36 E.05319
G1 X111.801 Y116.392 E.06236
G1 X111.424 Y115.128 E.0662
G1 X111.424 Y96.388 E.94048
G1 X111.672 Y94.996 E.07096
G1 X112.052 Y94.163 E.04595
G1 X112.485 Y93.556 E.03742
M204 S1000
G1 X112.765 Y93.756 F10800
M204 S800
G1 F1200
G1 X112.864 Y93.618 E.00852
G1 X114.174 Y92.619 E.08268
G1 X115.046 Y92.301 E.04658
G1 X115.997 Y92.17 E.04818
G1 X133.988 Y92.169 E.90289
G1 X134.918 Y92.292 E.04708
G1 X135.812 Y92.614 E.04769
G1 X136.854 Y93.336 E.06362
G1 X137.76 Y94.533 E.07534
G1 X138.072 Y95.343 E.04356
G1 X138.215 Y96.196 E.04341
G1 X138.232 Y113.596 E.87324
G1 X138.005 Y114.881 E.06549
M73 Q8 S8
G1 X137.641 Y115.678 E.04397
M73 P8 R8
G1 X137.136 Y116.382 E.04348
G1 X135.832 Y117.378 E.08235
G1 X134.93 Y117.706 E.04817
G1 X134.001 Y117.831 E.04704
G1 X114.544 Y117.832 E.97647
G1 X113.639 Y117.611 E.04675
G1 X112.784 Y117.08 E.05051
G1 X112.103 Y116.225 E.05486
G1 X111.768 Y115.103 E.05876
G1 X111.768 Y96.403 E.93848
G1 X111.995 Y95.119 E.06544
G1 X112.359 Y94.322 E.04397
G1 X112.73 Y93.805 E.03194
M204 S1000
G1 X113.01 Y94.006 F10800
M204 S800
G1 F1200
G1 X113.129 Y93.84 E.01025
G1 X114.316 Y92.934 E.07494
G1 X115.146 Y92.632 E.04433
G1 X116.031 Y92.513 E.04481
G1 X133.976 Y92.514 E.90059
G1 X134.853 Y92.631 E.0444
G1 X135.673 Y92.93 E.0438
G1 X136.597 Y93.567 E.05632
G1 X137.447 Y94.681 E.07032
G1 X137.735 Y95.418 E.03971
G1 X137.873 Y96.239 E.04178
G1 X137.887 Y113.582 E.87037
G1 X137.682 Y114.76 E.06001
G1 X137.351 Y115.491 E.04027
G1 X136.871 Y116.16 E.04132
G1 X135.689 Y117.063 E.07465
G1 X134.864 Y117.367 E.04412
G1 X133.989 Y117.487 E.04432
G1 X114.564 Y117.487 E.97486
M73 Q9 S8
G1 X113.795 Y117.302 E.03969
M73 P9 R8
G1 X113.025 Y116.833 E.04525
G1 X112.407 Y116.06 E.04967
G1 X112.113 Y115.078 E.05144
G1 X112.113 Y96.417 E.93652
G1 X112.318 Y95.24 E.05996
M73 P9 R7
G1 X112.649 Y94.509 E.04027
G1 X112.975 Y94.055 E.02805
M204 S1000
G1 X113.253 Y94.257 F10800
M204 S800
G1 F1200
G1 X113.393 Y94.063 E.01201
G1 X114.46 Y93.248 E.06738
G1 X115.212 Y92.971 E.04022
G1 X116.043 Y92.858 E.04209
G1 X133.965 Y92.859 E.89943
G1 X134.753 Y92.962 E.03988
M73 Q9 S7
G1 X135.533 Y93.246 E.04166
G1 X136.377 Y93.834 E.05162
G1 X137.135 Y94.829 E.06277
G1 X137.407 Y95.526 E.03755
G1 X137.53 Y96.281 E.03839
G1 X137.542 Y113.568 E.86756
G1 X137.358 Y114.638 E.05449
G1 X137.044 Y115.333 E.03827
G1 X136.607 Y115.937 E.03741
G1 X135.544 Y116.749 E.06713
G1 X134.797 Y117.028 E.04002
G1 X133.977 Y117.142 E.04155
G1 X114.584 Y117.142 E.97326
G1 X113.948 Y116.992 E.03279
M73 P10 R7
M73 Q10 S7
G1 X113.266 Y116.585 E.03986
G1 X112.711 Y115.896 E.0444
G1 X112.458 Y115.053 E.04417
G1 X112.458 Y96.432 E.93451
G1 X112.642 Y95.362 E.05449
G1 X112.956 Y94.667 E.03827
G1 X113.218 Y94.305 E.02243
M204 S1000
G1 X113.497 Y94.508 F10800
M204 S800
G1 F1200
G1 X113.658 Y94.286 E.01376
G1 X114.604 Y93.563 E.05975
G1 X115.313 Y93.301 E.03793
G1 X116.054 Y93.203 E.03751
G1 X133.953 Y93.204 E.89828
G1 X134.688 Y93.301 E.03721
G1 X135.392 Y93.562 E.03768
G1 X136.156 Y94.1 E.04689
G1 X136.822 Y94.977 E.05527
G1 X137.078 Y95.634 E.03539
G1 X137.187 Y96.321 E.03491
G1 X137.197 Y113.554 E.86485
G1 X137.034 Y114.518 E.04907
G1 X136.754 Y115.145 E.03446
G1 X136.342 Y115.714 E.03526
G1 X135.4 Y116.435 E.05953
G1 X134.695 Y116.698 E.03776
G1 X133.966 Y116.797 E.03692
G1 X114.603 Y116.797 E.97175
G1 X114.098 Y116.68 E.02602
G1 X113.507 Y116.336 E.03432
G1 X113.016 Y115.733 E.03903
G1 X112.803 Y115.027 E.03701
G1 X112.803 Y96.446 E.9325
G1 X112.966 Y95.482 E.04907
M73 P11 R7
M73 Q11 S7
G1 X113.246 Y94.855 E.03446
G1 X113.462 Y94.556 E.01851
M204 S1000
G1 X113.739 Y94.759 F10800
M204 S800
G1 F1200
G1 X113.921 Y94.51 E.01548
G1 X114.75 Y93.877 E.05235
G1 X115.379 Y93.64 E.03373
G1 X116.065 Y93.548 E.03474
G1 X133.942 Y93.548 E.89717
G1 X134.622 Y93.64 E.03444
G1 X135.249 Y93.876 E.03362
G1 X135.934 Y94.365 E.04224
G1 X136.51 Y95.126 E.0479
G1 X136.741 Y95.707 E.03138
G1 X136.845 Y96.362 E.03328
G1 X136.852 Y113.54 E.86209
G1 X136.71 Y114.398 E.04365
G1 X136.447 Y114.988 E.03242
G1 X136.079 Y115.49 E.03124
G1 X135.253 Y116.122 E.0522
G1 X134.628 Y116.359 E.03355
G1 X133.954 Y116.452 E.03415
G1 X114.622 Y116.452 E.97019
G1 X114.244 Y116.367 E.01944
G1 X113.746 Y116.086 E.0287
G1 X113.322 Y115.574 E.03336
G1 X113.148 Y115.002 E.03001
G1 X113.148 Y96.46 E.93055
G1 X113.29 Y95.602 E.04365
G1 X113.553 Y95.012 E.03242
G1 X113.703 Y94.808 E.01271
M73 Q12 S7
M204 S1000
G1 X113.981 Y95.011 F10800
M204 S800
G1 F1200
G1 X114.185 Y94.734 E.01726
G1 X114.895 Y94.191 E.04486
G1 X115.481 Y93.97 E.03143
M73 P12 R7
G1 X116.076 Y93.893 E.03011
G1 X133.931 Y93.893 E.89607
G1 X134.52 Y93.97 E.02981
G1 X135.105 Y94.19 E.03137
G1 X135.711 Y94.629 E.03755
G1 X136.198 Y95.274 E.04056
G1 X136.413 Y95.815 E.02922
G1 X136.502 Y96.4 E.0297
G1 X136.507 Y113.527 E.85953
G1 X136.386 Y114.28 E.03827
G1 X136.157 Y114.799 E.02847
G1 X135.815 Y115.266 E.02905
G1 X135.106 Y115.809 E.04482
G1 X134.559 Y116.02 E.02942
G1 X133.942 Y116.107 E.03127
G1 X114.64 Y116.107 E.96869
G1 X113.984 Y115.834 E.03566
G1 X113.648 Y115.45 E.02561
G1 X113.493 Y114.975 E.02508
G1 X113.493 Y96.473 E.92854
G1 X113.614 Y95.72 E.03827
G1 X113.843 Y95.201 E.02847
G1 X113.946 Y95.06 E.00876
M204 S1000
G1 X114.22 Y95.264 F10800
M204 S800
G1 F1200
G1 X114.447 Y94.959 E.01908
G1 X115.042 Y94.503 E.03762
G1 X115.547 Y94.309 E.02715
G1 X116.088 Y94.238 E.02738
G1 X133.919 Y94.238 E.89487
G1 X134.453 Y94.309 E.02704
M73 P13 R7
M73 Q13 S7
G1 X134.959 Y94.503 E.0272
G1 X135.486 Y94.891 E.03284
G1 X135.886 Y95.423 E.0334
G1 X136.085 Y95.923 E.02701
G1 X136.159 Y96.437 E.02606
G1 X136.162 Y113.514 E.85702
G1 X136.061 Y114.162 E.03291
G1 X135.85 Y114.642 E.02631
G1 X135.553 Y115.041 E.02496
G1 X134.959 Y115.496 E.03755
G1 X134.454 Y115.691 E.02717
G1 X133.931 Y115.762 E.02649
G1 X114.657 Y115.762 E.96728
G1 X114.221 Y115.581 E.02369
G1 X113.942 Y115.262 E.02127
G1 X113.838 Y114.946 E.0167
G1 X113.838 Y96.486 E.92643
G1 X113.939 Y95.838 E.03291
G1 X114.15 Y95.358 E.02631
G1 X114.184 Y95.312 E.00287
M204 S1000
G1 X114.461 Y95.518 F10800
M204 S800
G1 F1200
G1 X114.709 Y95.184 E.02088
G1 X115.192 Y94.815 E.0305
G1 X115.615 Y94.648 E.02282
G1 X116.099 Y94.583 E.02451
G1 X133.907 Y94.583 E.89371
G1 X134.385 Y94.648 E.02421
G1 X134.809 Y94.815 E.02287
G1 X135.259 Y95.152 E.02821
G1 X135.576 Y95.574 E.02649
G1 X135.746 Y95.994 E.02274
G1 X135.816 Y96.474 E.02434
G1 X135.817 Y113.501 E.85452
G1 X135.735 Y114.047 E.02771
M73 Q14 S7
G1 X135.56 Y114.453 E.02219
M73 P14 R7
G1 X135.291 Y114.816 E.02267
G1 X134.809 Y115.185 E.03046
G1 X134.386 Y115.352 E.02282
G1 X133.918 Y115.417 E.02371
G1 X114.673 Y115.417 E.96583
G1 X114.447 Y115.319 E.01236
G1 X114.183 Y114.914 E.02426
G1 X114.183 Y96.499 E.92417
G1 X114.265 Y95.953 E.02771
G1 X114.43 Y95.569 E.02098
M204 S1000
G1 X114.767 Y95.763 F10800
M204 S800
G1 F1200
G1 X114.969 Y95.412 E.02032
G1 X115.341 Y95.127 E.02352
G1 X116.11 Y94.928 E.03986
G1 X133.897 Y94.928 E.89266
G1 X134.66 Y95.127 E.03957
G1 X135.029 Y95.41 E.02334
G1 X135.408 Y96.066 E.03802
G1 X135.472 Y96.511 E.02256
G1 X135.472 Y113.489 E.85206
G1 X135.409 Y113.932 E.02246
G1 X135.031 Y114.588 E.038
G1 X134.66 Y114.873 E.02348
G1 X133.908 Y115.072 E.03904
G1 X114.724 Y115.072 E.96277
G1 X114.554 Y114.939 E.01083
G1 X114.528 Y96.511 E.92483
G1 X114.591 Y96.068 E.02246
M73 P15 R7
M73 Q15 S7
G1 X114.737 Y95.815 E.01466
M204 S1000
;WIPE_START
G1 F8640
G1 X114.767 Y95.763 E-.01386
G1 X114.969 Y95.412 E-.09351
G1 X115.341 Y95.127 E-.10821
G1 X116.11 Y94.928 E-.18341
G1 X117.847 Y94.928 E-.40101
;WIPE_END
G1 Z.75 F720
; printing object rp2040_zero_mount.stl id:0 copy 0
G1 X110.812 Y118.727 F10800
G1 Z.35 F720
G1 E.8 F2100
M204 S800
;TYPE:Support material
G1 F1200
G1 X111.992 Y119.526 E.07152
G1 X110.474 Y119.526 E.07618
G1 X110.474 Y118.21 E.06604
G1 X110.784 Y118.684 E.02842
M204 S1000
G1 X110.821 Y119.371 F10800
M204 S800
G1 F1200
G1 X110.821 Y118.921 E.02258
M204 S1000
;WIPE_START
G1 F8640
G1 X110.821 Y119.371 E-.10391
;WIPE_END
G1 E-.69609 F2100
G1 Z.75 F720
G1 X131.059 Y98.189 F10800
G1 Z.35 F720
G1 E.8 F2100
M204 S800
;TYPE:External perimeter
;WIDTH:0.42
G1 F1200
G1 X131.045 Y98.171 E.00114
G1 X130.909 Y97.829 E.01847
G1 X130.867 Y97.463 E.01849
G1 X130.921 Y97.098 E.01852
G1 X131.067 Y96.76 E.01848
G1 X131.296 Y96.472 E.01847
G1 X131.592 Y96.252 E.01851
G1 X131.934 Y96.117 E.01845
G1 X132.245 Y96.08 E.01572
G1 X132.664 Y96.128 E.02117
G1 X133.002 Y96.275 E.0185
G1 X133.303 Y96.519 E.01945
G1 X133.538 Y96.865 E.02099
G1 X133.646 Y97.142 E.01492
G1 X133.688 Y97.508 E.01849
G1 X133.634 Y97.872 E.01847
G1 X133.488 Y98.21 E.01848
G1 X133.259 Y98.499 E.01851
G1 X132.964 Y98.718 E.01844
G1 X132.621 Y98.854 E.01852
G1 X132.255 Y98.896 E.01849
G1 X131.891 Y98.842 E.01847
G1 X131.516 Y98.668 E.02075
